**kern	**dynam
*clefG2	*
*k[b-]	*
*F:	*
*M3/4	*
=1	=1
!LO:TX:a:t=Allegro con Brio	!
[4f	p
(8fL]	.
16gL	.
16fJJ)	.
8e'L	.
8f'J	.
=2	=2
4c	.
4r	.
4r	.
=3	=3
[4f	.
(8fL]	.
16gL	.
16fJJ)	.
8e'L	.
8f'J	.
=4	=4
4d	.
4r	.
4r	.
=5	=5
[4ff	.
(8ffL]	<
16ggL	.
16ffJJ	.
8ee'L)	.
8ff'J	[
=6	=6
(>2gg	>
4b-)	.
=7	=7
(>2a	]
8.ddL)	.
16b-Jk	.
=8	=8
(<2a	.
4g)	.
=9	=9
!!linebreak:original
[4f	.
(8fL]	f
16gL	.
16fJJ)	.
8e'L	.
8f'J	.
=10	=10
4c	.
4r	.
4r	.
=11	=11
[4f	.
(8fL]	.
16gL	.
16fJJ)	.
8e'L	.
8f'J	.
=12	=12
4d	.
4r	.
4r	.
=13	=13
[4ff'	p
(8ffL]	.
16ggL	.
16ffJJ)	.
8ee'L	.
8ff'J	.
=14	=14
(2aa	<
4gg)	>
=15	=15
[4gg	]
(8ggL]	.
16aaL	.
16ggJJ)	.
8ff#X'L	.
8gg'J	.
=16	=16
(>2bb-	<
4aa)	>
=17	=17
[4aa	]
(8aaL]	.
16bb-L	.
16aaJJ)	.
8gg'L	.
8aa'J	.
=18	=18
!!linebreak:original
(>4.ccc	.
!LO:TX:b:Bi:t=Cresc.	!
8bb-L	.
8aa	.
8ggJ)	.
=19	=19
(>2ff	.
16qqgg/LL	.
16qqff/	.
16qqee/	.
16qqff/JJ	.
8aaL	.
8ggJ)	.
=20	=20
4ff	.
4r	p
4r	.
=21	=21
2.r	.
=22	=22
(>4.ff	.
16ggLL	sf
16ffJJ)	.
8ee'L	.
8ff'J	.
=23	=23
2.r	.
=24	=24
(>4.gg	.
16aanLL	sf
16ggJJ)	.
8ff#X'L	.
8gg'J	.
=25	=25
2.r	.
=26	=26
(>4.ccc	.
16dddLL	sf
16cccJJ)	.
8bbn'L	.
8ccc'J	.
=27	=27
(>4.ddd	.
16eee-XLL	sf
16dddJJ)	.
8ccc#X'L	.
8ddd'J	.
=28	=28
4eeen'	.
4eee'	f
4eee'	.
=29	=29
!!linebreak:original
4fff	.
4r	.
4r	.
=30	=30
4r	.
8r	.
8a	.
4at	p
16qqg/LL	.
16qqa/JJ	.
=31	=31
(>4.cc	.
8b-L)	.
8g'	.
8f'J	.
=32	=32
4e	.
8r	.
8b-	.
4b-T	.
16qqa/LL	.
16qqb-/JJ	.
=33	=33
(>4.dd	.
8ccL)	.
8a'	.
8g'J	.
=34	=34
4f	.
8r	.
8ff	.
4ffT	.
16qqee/LL	.
16qqff/JJ	.
=35	=35
(>4.aa	.
8ggL)	.
8gg'	.
8ff'J	.
=36	=36
(>8ffL	.
8eeJ)	.
(8ee'L	.
8dd'	.
8cc'	.
8b-'J)	.
=37	=37
[2.a	.
=38	=38
8aL]	.
(16bnL	.
16cc#XJJ	.
16ddLL	.
16ee	.
16ff	.
16eeJJ	.
16ddLL	.
16ccn	.
16b	.
16aJJ)	.
=39	=39
!!linebreak:original
[2.g	.
=40	=40
8gL]	.
(16aL	.
16bnJJ	.
16ccLL	.
16b	.
16cc	.
16bJJ	.
16ccLL	.
16b	.
16cc	.
16bJJ)	.
=41	=41
[2.cc	.
=42	=42
(4.cc]	pp
16dd-XLL	.
16ccJJ)	.
8b-'L	.
8cc'J	.
=43	=43
(>4.ee-X	.
8ddL)	.
8b-'	.
8a-X'J	.
=44	=44
4g	.
8r	.
(16ee-XLL	.
16dd-XJJ)	.
8cc'L	.
8dd-'J	.
=45	=45
(>4ff	.
8ee-XL)	.
8cc'	.
8b-'J	.
=46	=46
4an	.
8r	.
(16ffLL	.
!LO:TX:b:Bi:t=Cresc.	!
16ee-XJJ)	.
8ddn'L	.
8ee-'J	.
=47	=47
!!linebreak:original
2.ff	.
=48	=48
4ee-X'	sf
4dd'	f
4cc'	.
=49	=49
16bnLL	.
16g'	p
16an'	.
16b'JJ	.
16cc'LL	.
16dd'	.
16een'	.
16ff#X'JJ	.
16gg'LL	.
16ff#'	.
16gg'	.
16ff#'JJ	.
=50	=50
4gg	.
8r	.
8bbn'L	.
8bb'	.
8ccc'J	.
=51	=51
16bbnLL	.
16g	.
16a	.
16bnJJ	.
!LO:TX:b:Bi:t=Cresc.	!
16ccLL	.
16dd	.
16ee	.
16ff#XJJ	.
16ggLL	.
16ff#	.
16gg	.
16ff#JJ	.
=52	=52
4gg	.
8r	.
8bbn'L	.
8bb'	.
8ccc'J	.
=53	=53
!!linebreak:original
8bb-	.
16GLL	.
16A	.
16BnJJ	.
16cLL	.
16d	.
16e	.
16f#XJJ	.
16gLL	.
16f#	.
16gJJ	.
=54	=54
16gLL	.
16g	ff
16a	.
16bnJJ	.
16ccLL	.
16dd	.
16ee	.
16ff#XJJ	.
16ggLL	.
16ff#	.
16gg	.
16ff#JJ	.
=55	=55
8gg	.
4gg	.
4gg	.
[8gg	.
=56	=56
!LO:TX:b:Bi:t=Decresc.	!
8gg#X	.
4ggn	.
4gg	.
(8gg	.
=57	=57
8aa)	p
(8aaL	.
8ffJ)	.
(8ffL	.
8ddJ)	.
(8dd	.
=58	=58
8bn)	.
(8bL	.
8gJ)	.
(8gL	.
8bJ)	.
(8b	.
=59	=59
!!linebreak:original
!LO:TX:a:Bi:t=Cresc.	!
8cc)	.
(8ccL	.
8ddJ)	.
(8ddL	.
8eeJ)	.
(8ee	.
=60	=60
4gg	.
4ff)	.
4r	.
=61	=61
2.r	.
=62	=62
4r	.
4r	.
4gg#X	.
=63	=63
4aa	.
4ccc	.
4ff#X)	.
=64	=64
(4aa	.
8ggn)	.
8r	.
4r	.
=65	=65
2.r	.
=66	=66
4r	.
4r	.
8ff'L	.
(8ffJ	.
=67	=67
8ee)	.
(8eeL	.
8ddJ)	.
(8ddL	.
8ccJ)	.
8cc'	.
=68	=68
(>4cc	.
8bn)	.
8r	.
4r	.
=69	=69
4r	.
4r	.
[4aa-X	.
=70	=70
!!linebreak:original
!LO:TX:b:Bi:t=Cresc.	!
(>4aa-X]	.
4gg	.
4ccc)	.
=71	=71
(>2ccc	sf
8.dddL	.
16bbnJk)	.
=72	=72
4ccc	.
4r	.
4r	.
=73	=73
(>4.ee	.
16ffLL	p
16eeJJ)	.
8dd'L	.
8cc'J	.
=74	=74
4b-	.
4r	.
4r	.
=75	=75
(>4.ff	.
!LO:TX:b:Bi:t=Cresc.	!
16ggLL	.
16ffJJ)	.
8ee'L	.
8dd'J	.
=76	=76
4cc#X	.
4r	.
4r	.
=77	=77
(>[4bb-	f
8bb-L]	.
16aaL	.
16ggJJ	.
16ffLL	.
16ee	.
16dd	.
16cc#XJJ)	.
=78	=78
16dd'LL	fp
16a'	.
16b-X'	.
16cc#X'JJ	.
16ddLL	.
16ee'	.
16ff'	.
16ee'JJ	.
16dd'LL	.
16a'	.
16b-'	.
16cc#'JJ	.
=79	=79
!!linebreak:original
16ddLL	.
16ee	.
16ff	.
16eeJJ	.
16ddLL	.
16a	.
16bn	.
16cc#XJJ	.
16ddLL	.
!LO:TX:b:Bi:t=Cresc.	!
16ee	.
16ff	.
16eeJJ	.
=80	=80
16ddLL	.
16a	.
16b-	.
16cc#XJJ	.
16ddLL	.
16ee	.
16ff	.
16eeJJ	.
16ddLL	.
16a	.
16b-	.
16cc#JJ	.
=81	=81
16ddLL	.
16ee	.
16ff	.
16ggJJ	.
16aaLL	.
16gg	.
16ff	.
16eeJJ	.
16ddLL	.
16ccn	.
16bn	.
16aJJ	.
=82	=82
2.g	.
=83	=83
2.ddT	f
(16qqcc/LL	.
16qqdd/JJ)	.
=84	=84
4cc	.
(4.c	fp
8Bn)	.
=85	=85
(<8BnL	.
8fJ)	.
(8fL	.
8eJ)	.
8eL	.
8aJ)	.
=86	=86
!!linebreak:original
(<8aL	.
8gJ)	.
(8gL	.
(>8ccJ)	.
8ccL	.
8bnJ)	.
=87	=87
(<8bnL	.
8ffJ)	.
4ff	.
4r	.
=88	=88
2.r	.
=89	=89
(>4.ee	.
16ffLL	p
16eeJJ)	.
!LO:TX:b:Bi:t=Cresc.	!
8dd'L	.
8ee'J	.
=90	=90
[2.aa	.
=91	=91
(>4aa]	.
4gg)	.
(4bn'	.
=92	=92
4cc')	.
(4.cc	.
8bn)	.
=93	=93
(8b-L	.
8ff)	.
(8ff	.
8ee)	.
(8ee	.
8aaJ)	.
=94	=94
(>8aaL	.
8gg)	.
8gg)	.
8ccc)	.
(8ccc	.
8bbnJ)	.
=95	=95
(>8bbnL	.
8fffJ)	.
4fff	.
4r	.
=96	=96
2.r	.
=97	=97
!!linebreak:original
2.c 2.e-X	.
=98	=98
2.c 2.e-X	.
=99	=99
2c 2e-X	.
4c 4e-	.
=100	=100
4c 4en	.
!	!LO:DY:a
(4f'	ff
4d')	.
=101	=101
4c	.
4r	.
4r	.
=102	=102
4r	.
4ee	p
4eet	.
16qqdd/LL	.
16qqee/JJ	.
=103	=103
(4gg	.
4ff)	.
4r	.
=104	=104
4r	.
4bbn	.
4bbt	.
16qqaa/LL	.
16qqbb/JJ	.
=105	=105
(>8cccL	.
8eeeJ)	.
4gg	.
4r	.
=106	=106
(16ffLL	.
16ee	.
16dd	.
16eeJJ)	.
(16ffLL	.
16ee	.
16dd	.
16eeJJ)	.
(16ffLL	.
16ee	.
16dd	.
16eeJJ)	.
=107	=107
(4gg	.
4ff)	.
4r	.
=108	=108
!!linebreak:original
(16cccLL	.
16bbn	.
16aa	.
16bbJJ)	.
(16cccLL	.
16bb	.
16aa	.
16bbJJ)	.
(16cccLL	.
16bb	.
16aa	.
16bbJJ)	.
=109	=109
16ccc'LL	.
16eee'	.
16ddd'	.
16ccc'JJ	.
16bb-'LL	.
16aa'	.
16gg'	.
16ff'JJ	.
16ee'LL	.
16ccc'	.
16bb-'	.
16aa'JJ	.
=110	=110
16ggLL	.
16ff	.
16ee	.
16ddJJ	.
16ccLL	.
16gg	.
16ff	.
16eeJJ	.
16ddLL	.
16cc	.
16bn	.
16aJJ	.
=111	=111
16gLL	.
16ee	.
16dd	.
16ccJJ	.
16bnLL	.
16a	.
16g	.
16fJJ	.
16eLL	.
16cc	.
16b	.
16aJJ	.
=112	=112
!!linebreak:original
16gLL	.
16f	.
16e	.
16dJJ	.
(16cLL	.
16Bn	.
16c	.
16BJJ	.
16cLL	.
16B	.
16c	.
16BJJ)	.
=113	=113
!	!LO:DY:a
4c'	f
4c'	.
4c'	.
=114	=114
4c'	.
4r	.
4r	.
=115:|!	=115:|!
16aa'LL	f
16eee'	.
16ddd	.
16ccc#XJJ	.
16bbn'LL	.
16aa'	.
16gg#X'	.
16ff#X'JJ	.
16ee'LL	.
16aa'	.
16gg#'	.
16ff#'JJ	.
=116	=116
16eeLL	.
16dd	.
16cc#X	.
16bnJJ	.
16aLL	.
16ee	.
16dd	.
16cc#JJ	.
16bLL	.
16a	.
16g#X	.
16f#XJJ	.
=117	=117
!!linebreak:original
16eLL	.
16a	.
16g#X	.
16f#XJJ	.
16eLL	.
16d	.
(<16c#X	.
16BnJJ	.
16ALL	.
16G#X	.
16A	.
16G#JJ)	.
=118	=118
4A'	.
4A'	.
(4A	.
=119	=119
[2.B-X)	fp
=120	=120
16B-]	.
16ddLL	.
16ff	.
16bb-JJ	.
16dddLL	.
16bb-	.
16ddd	.
16bb-JJ	.
16dddLL	.
16bb-	.
16ddd	.
16bb-JJ	.
=121	=121
4eee-X	f
4r	.
4r	.
=122	=122
16r	p
16ee-XLL	.
16gg	.
16bb-JJ	.
16eee-XLL	.
16bb-	.
16eee-	.
16bb-JJ	.
16eee-LL	.
16bb-	.
16eee-	.
16bb-JJ	.
=123	=123
!!linebreak:original
4eee-X	.
4r	.
4r	.
=124	=124
2.r	.
=125	=125
(>2ccc	pp
4ee-X)	.
=126	=126
2.r	.
=127	=127
2.r	.
=128	=128
(>2eee	.
4gg)	pp
=129	=129
2.r	.
=130	=130
2.r	.
=131	=131
(>4.bb-	.
16cccLL	f
16bb-JJ)	.
8aa'L	.
8bb-'J	.
=132	=132
4cc#X'	.
4eee'	.
4ddd'	.
=133	=133
(>8ccc#XL	.
16eeeL	.
16dddJJ)	.
(4.ccc#	sf
8ddd)	.
=134	=134
(>8ccc#XL	.
16eeeL	.
16dddJJ)	.
(4.ccc#	sf
8ddd)	.
=135	=135
2.r	.
=136	=136
2.r	.
=137	=137
(>4.eee-X	f
16fffLL	.
16eee-JJ)	.
8ddd'L	.
8eee-'J	.
=138	=138
!!linebreak:original
4ff#X'	.
4ccc'	.
4bb-'	.
=139	=139
(>8aaL	.
16cccL	.
16bb-JJ)	.
(4.aa	sf
8bb-)	.
=140	=140
(>8aaL	.
16cccL	.
16bb-JJ)	.
(4.aa	sf
8bb-)	.
=141	=141
2.r	.
=142	=142
2.r	.
=143	=143
(4.aa-X	sf
16bb-XLL	.
16aa-JJ)	.
8gg'L	.
8aa-'J	.
=144	=144
4b-'	.
4aa-X'	.
4aa-'	.
=145	=145
[4aa-X	.
(8aaL	sf
16ffL	.
16ggJJ)	.
(8aaL	.
8ggJ)	.
=146	=146
[4aa-X	.
(8aa-L]	sf
16ffL	.
16ggJJ)	.
(8aa-L	.
8ggJ)	.
=147	=147
!!linebreak:original
4r	.
(8eeeL	sf
16gggL	.
16fffJJ)	.
(8eeeL	.
8fffJ)	.
=148	=148
4r	.
(8eeeL	sf
16gggL	.
16fffJJ)	.
(8eeeL	.
8fffJ)	.
=149	=149
[4aan	.
(8aaL]	sf
16cccL	.
16bb-JJ)	.
(8aaL	.
8bb-J)	.
=150	=150
[4aa	.
(8aaL]	sf
16cccL	.
16bb-JJ)	.
(8aaL	.
8bb-J)	.
=151	=151
[4ddd-X	sf
(8dddL	.
16eeeL	.
16ddd-XJJ)	.
8ccc'L	.
8ddd-'J	.
=152	=152
[4bb-	.
(8bb-L]	.
16cccL	.
16bb-JJ)	.
8aa'L	.
8bb-'J	.
=153	=153
[4ff	.
(8ffL]	.
16gg-XL	.
16ffJJ)	.
8ee'L	.
8ff'J	.
=154	=154
!!linebreak:original
[4dd-X	.
(8dd-L]	.
16ee-XL	.
16dd-JJ)	.
8cc'L	.
8dd-'J	.
=155	=155
8d-XL	fp
8d-	.
8d-	.
8d-	.
8d-	.
8d-J	.
=156	=156
8d-XL	.
8d-	.
8d-	.
8d-	.
8d-	.
8d-J	.
=157	=157
8d-XL	.
8d-	.
8d-	.
8d-	.
8d-	.
8d-J	.
=158	=158
8d-XL	.
8d-	.
8d-	.
8d-	.
8c	.
8cJ	.
=159	=159
[4ff	fp
(8ffL]	.
16ggL	.
16ffJJ)	.
8ee'L	.
8ff'J	.
=160	=160
(>4cc	.
8ccL)	.
16dd-XL	.
16ccJJ)	.
8bn'L	.
8cc'J	.
=161	=161
[4a-X	.
(8a-L]	.
16b-L	.
16a-JJ)	.
8g'L	.
8a-'J	.
=162	=162
!!linebreak:original
[4f	.
(8fL]	.
16gL	.
16fJJ)	.
8e'L	.
8f'J	.
=163	=163
8fL	.
8f	fp
8f	.
8f	.
8f	.
8fJ	.
=164	=164
8fL	.
8f	.
8f	.
8f	.
8f	.
8fJ	.
=165	=165
8fL	.
8f	.
8f	.
8f	.
8f	.
8fJ	.
=166	=166
8fL	.
8f	.
8f	.
8f	.
8f	.
8fJ	.
=167	=167
16en'	.
16ccc'LL	.
16bbn'	.
16aa'JJ	.
16gg'LL	.
16ff'	.
16ee'	.
16dd'JJ	.
[4cc	sf
=168	=168
16ccLL]	.
16ccc'	.
16bbn'	.
16aa'JJ	.
16gg'LL	.
16ff'	.
16ee'	.
16dd'JJ	.
[4cc	sf
=169	=169
!!linebreak:original
16ccLL]	.
16ccc'	.
16bbn'	.
16aa'JJ	.
16gg'LL	.
16ff'	.
16ee'	.
16dd'JJ	.
16cc'LL	.
16.ccc'	.
16bb'	.
16aa'JJ	.
=170	=170
16ggLL	.
16ff	.
16ee	.
16ddJJ	.
16ccLL	.
16bn	.
16dd	.
16ccJJ	.
16bLL	.
16cc	.
16dd	.
16ccJJ	.
=171	=171
4b-X	.
[2ee	sf
=172	=172
4ee]	.
[2gg	sf
=173	=173
4gg]	.
[2bb-	sf
=174	=174
4bb-]	.
4eee'	.
4ggg'	.
=175	=175
2.bbb-	sf
=176	=176
2.ee	sf
=177	=177
2.gg	sf
=178	=178
!!linebreak:original
(16cLL	.
16Bn	.
16c	.
!LO:TX:b:Bi:t=Cresc.	!
16dJJ	.
16eLL	.
16f	.
16g	.
16aJJ	.
16b-XLL	.
16cc	.
16dd	.
16eeJJ)	.
=179	=179
(4.ff	.
16ggLL	ff
16ffJJ)	.
8ee'L	.
8ff'J	.
=180	=180
4cc	.
4r	.
4r	.
=181	=181
(>4.ff	.
16ggLL	.
16ffJJ)	.
8ee'L	.
8ff'J	.
=182	=182
4dd	.
4r	.
4r	.
=183	=183
(>[4ff	p
8ffL]	<
16ggL	.
16ffJJ)	.
8ee'L	.
8ff'J	.
=184	=184
(>2gg	>
4b-)	]
=185	=185
(>2a	.
8.ddL	.
16b-Jk)	.
=186	=186
(>2a	.
4g)	.
=187	=187
2.r	.
=188	=188
!!linebreak:original
[2.ff	p
=189	=189
(>4ff]	.
[4bb-)	.
(8.bb-L]	.
16gg-XJk)	.
=190	=190
(>2ff	.
4ee-X)	.
=191	=191
2.r	.
=192	=192
2.r	.
=193	=193
(2dd-X	.
8.gg-XL	.
16ee-XJk)	.
=194	=194
(>2dd-X	.
4cc)	.
=195	=195
2.r	.
=196	=196
4r	.
!LO:TX:b:Bi:t=Cresc.	!
4dd-X	.
4dd-	.
=197	=197
(>8dd-XL	.
8cc-X	.
8b-	.
8cc-	.
8dd-	.
8cc-J)	.
=198	=198
4b-	.
4r	.
4r	.
=199	=199
4r	.
8r	.
8b-	.
4b-T	.
16qqa-X/LL	.
16qqb-/JJ	.
=200	=200
(>4.dd-X	.
8cc-XL)	.
8a-X'	.
8g-X'J	.
=201	=201
!!linebreak:original
4f	.
8r	.
8cc-X	.
4cc-t	.
(16qqb-/LL	.
16qqcc-/JJ)	.
=202	=202
(>4.ee	.
8dd-X	.
8b-'L)	.
8a-X'J	.
=203	=203
4g-X	.
8r	.
8gg-X	.
4gg-t	.
16qqff/LL	.
16qqggn/JJ	.
=204	=204
(>4.bb-	.
8aa-XL)	.
8aa-'	.
8gg-X'J	.
=205	=205
(>8gg-XL	.
8ffJ)	.
(8ff'L	.
8ee-X'	.
8dd-X'	.
8cc-X'J)	.
=206	=206
!LO:TX:b:Bi:t=Cresc.	!
(<4an	.
4b-)	.
4b-'	.
=207	=207
(>4.b-	.
16ccLL	.
16b-JJ)	.
8a'L	.
8b-'J	.
=208	=208
2ggn	f
4b-'	.
=209	=209
4a-X'	.
4g'	.
4f'	.
=210	=210
!!linebreak:original
16cc'LL	.
16c'	p
16d'	.
16..e'JJ	.
16f'LL	.
16g'	.
16an'	.
16bn'JJ	.
16ccLL	.
16b'	.
16cc'	.
16b'JJ	.
=211	=211
4cc	.
8r	.
8ee'L	.
8ee#X'	.
8ff'J	.
=212	=212
16ee'LL	.
16c'	.
16d'	.
16e'JJ	.
16f'LL	.
16g'	.
16a'	.
16bn'JJ	.
16cc'LL	<
16b'	.
16cc'	.
16b'JJ	[
=213	=213
4cc	.
8r	.
8ee'L	.
8ee'	.
8ff'J	.
=214	=214
!LO:TX:b:Bi:t=Cresc.	!
16eeLL	.
16c	.
16d	.
16eJJ	.
16fLL	.
16g	.
16a	.
16bnJJ	.
16ccLL	.
16b	.
16cc	.
16bJJ	.
=215	=215
!!linebreak:original
16ccLL	ff
16cc	.
16dd	.
16eeJJ	.
16ffLL	.
16gg	.
16aa	.
16bbnJJ	.
16cccLL	.
16bb	.
16ccc	.
16bbJJ	.
=216	=216
8ccc	.
4ccc	.
4ccc	.
[8ccc	.
=217	=217
8ccc#X	.
!LO:TX:b:Bi:t=Decresc.	!
4ccc#	.
4ccc#	.
(8ccc#	.
=218	=218
8ddd)	p
(8dddL	.
8bb-XJ)	.
(8bb-L	.
8ggJ)	.
(8gg	.
=219	=219
8ee)	.
(8eeL	.
8ccJ)	.
(8ccL	.
8eeJ)	.
(8ee	.
=220	=220
8ff)	.
(8ffL	.
8ggJ)	.
(8ggL	.
8aaJ)	.
(8aa	.
=221	=221
4ccc	.
8bb-)	.
8r	.
4r	.
=222	=222
2.r	.
=223	=223
!!linebreak:original
4r	.
4r	.
(4ccc#X	p
=224	=224
4ddd	.
4fff	.
4bbn)	.
=225	=225
(4ddd	.
8cccn)	.
8r	.
4r	.
=226	=226
2.r	.
=227	=227
4r	.
4r	.
8bb-'L	.
(8bb-J	.
=228	=228
8aa)	.
(8aaL	.
8ggJ)	.
(8ggL	.
8ffJ)	.
8ff	.
=229	=229
(4ff	.
4ee)	.
4r	.
=230	=230
4r	.
4r	.
[4ddd-X	.
=231	=231
!LO:TX:b:Bi:t=Cresc.	!
(4ddd	.
4ccc	.
4fff)	.
=232	=232
(2fff	sf
8.gggL	.
16eeeJk)	.
=233	=233
4fff	.
4r	.
4r	.
=234	=234
(4.aa	.
16bb-LL	p
16aaJJ)	.
8gg'L	.
8ff'J	.
=235	=235
4ee	.
4r	.
4r	.
=236	=236
!!linebreak:original
(4.bb-	.
!LO:TX:b:Bi:t=Cresc.	!
16cccLL	.
16bb-JJ)	.
8aa'L	.
8gg'J	.
=237	=237
4ff#X	f
4r	.
4r	.
=238	=238
[4eee	f
8eeeL]	.
(16dddL	.
16cccJJ	.
16bb-LL	.
16aa	.
16gg	.
16ff#XJJ)	.
=239	=239
16gg'LL	fp
16dd'	.
16ee'	.
16ff#X'JJ	.
16gg'LL	.
16aa'	.
16bb-'	.
16aa'JJ	.
16gg'LL	.
16dd'	.
16ee'	.
16ff#'JJ	.
=240	=240
16ggLL	.
16aa	.
16bb-	.
16aaJJ	.
!LO:TX:b:Bi:t=Cresc.	!
16ggLL	.
16dd	.
16ee	.
16ff#XJJ	.
16ggLL	.
16aa	.
16bb-	.
16aaJJ	.
=241	=241
!!linebreak:original
16ggLL	.
16dd	.
16ee	.
16ff#XJJ	.
16ggLL	.
16aa	.
16bb-	.
16aaJJ	.
16ggLL	.
16dd	.
16ee	.
16ff#JJ	.
=242	=242
16ggLL	.
16aa	.
16bb-	.
16cccJJ	.
16dddLL	.
16ccc	.
16bb-	.
16aaJJ	.
16ggLL	.
16ff	.
16ee	.
16ddJJ	.
=243	=243
2.cc	.
=244	=244
2.ggT	f
=245	=245
4ff'	.
4.f	fp
8e	.
=246	=246
(8eL	.
8b-J)	.
(8b-L	.
8aJ)	.
(8aL	.
8ddJ)	.
=247	=247
(>8ddL	.
8cc)	.
(8cc	.
8ff)	.
(8ff	.
8eeJ)	.
=248	=248
!!linebreak:original
(8eeL	.
8bb-J)	.
4bb-	.
4r	.
=249	=249
4%3r	.
=250	=250
[4a	pp
(8aL]	.
16b-L	.
16aJJ	.
8g'L)	.
8a'J	.
=251	=251
[2.dd	fp
=252	=252
(>4dd]	.
4cc)	.
(4e'	.
=253	=253
4f')	.
(4.ff'	fp
8ee)	.
=254	=254
(>8eeL	.
8bb-)	.
(8bb-	.
8aa)	.
(8aa	.
8dddJ)	.
=255	=255
(>8ddL	.
8ccJ)	.
(8ccL	.
8ffJ)	.
(8ffL	.
8eeJ)	.
=256	=256
(>8eeeL	.
8bbb-J)	.
4bbb-	.
4r	.
=257	=257
4%3r	.
=258	=258
2.A-X 2.a-X	.
=259	=259
2.A-X 2.a-X	sf
=260	=260
!!linebreak:original
2A-X 2a-X	sf
4A- 4a-	sf
=261	=261
4A 4a	ff
(4b-'	.
4g')	.
=262	=262
4f'	.
4r	.
4r	.
=263	=263
4r	.
4a	p
4at	.
16qqg/LL	.
16qqa/JJ	.
=264	=264
4cc	.
4b-	.
4r	.
=265	=265
4r	.
4ee	.
4eet	.
16qqdd/LL	.
16qqee/JJ	.
=266	=266
(>8ffL	.
8aaJ)	.
4cc	.
4r	.
=267	=267
(>16bb-LL	.
16aa	.
16gg	.
16aaJJ)	.
(16bb-LL	.
16aa	.
16gg	.
16aaJJ)	.
(16bb-LL	.
16aa	.
16gg	.
16aaJJ)	.
=268	=268
(>4ccc	.
4bb-)	.
4r	.
=269	=269
!!linebreak:original
(>16fffLL	.
16eee	.
16ddd	.
16eeeJJ)	.
(16fffLL	.
16eee	.
16ddd	.
16eeeJJ)	.
(16fffLL	.
16eee	.
16ddd	.
16eeeJJ)	.
=270	=270
8fff'L	.
16eee'L	.
16ddd'JJ	.
16ccc'LL	.
16bb-'	.
16aa'	.
16gg'JJ	.
16ff'LL	.
16ccc'	.
16bb-'	.
16aa'JJ	.
=271	=271
16ggLL	.
16ff	.
16ee	.
16ddJJ	.
16ccLL	.
16aa	.
16gg	.
16ffJJ	.
16eeLL	.
16dd	.
16cc	.
16b-JJ	.
=272	=272
16aLL	.
16ff	.
16ee	.
16ddJJ	.
16ccLL	.
16b-	.
16a	.
16gJJ	.
16fLL	.
16ff	.
16ee	.
16ddJJ	.
=273	=273
!!linebreak:original
16ccLL	.
16b-	.
16a	.
(>16gJJ	.
16fLL	.
16e	.
16f	.
16eJJ	.
16fLL)	.
16e	.
16f	.
16eJJ)	.
=274	=274
4f'	.
4g'	ff
4a'	.
=275	=275
4b-'	.
4cc'	.
4dd'	.
=276	=276
[2.ee-X	.
=277	=277
2.ee	.
=278	=278
4d'	ff
4e'	.
4f#X'	.
=279	=279
4g'	.
4a'	.
4b-'	.
=280	=280
[2.cc	sf
=281	=281
2.cc]	.
=282	=282
8ff'L	pp
(16ggL	.
16ffJJ)	.
8ee'L	.
(16ffL	.
16eeJJ)	.
8ddL	.
(16eeL	.
16ddJJ)	.
=283	=283
!!linebreak:original
8cc'L	.
(16ddL	.
16ccJJ)	.
8b-L	.
(16ccL	.
16b-JJ)	.
8a'L	.
(16b-L	.
16aJJ)	.
=284	=284
(4.g	.
16aLL	.
16gJJ)	.
8f#X'L	.
8g'J	.
=285	=285
(>4ddd	.
4bbn	.
4ff)	.
=286	=286
4ee	.
4r	.
4r	.
=287	=287
2.r	.
=288	=288
2.r	.
=289	=289
(>4gg	.
4ee	.
4b-)	.
=290	=290
4f 4a	.
4r	.
4r	.
=291	=291
(>4aa	.
4ff	.
4cc)	.
=292	=292
(>4.b-	.
!LO:TX:b:Bi:t=Cresc.	!
16ccLL	.
16b-'JJ)	.
8aL	.
8b-'J	.
=293	=293
(>4bb-	.
4gg	.
4ee)	.
=294	=294
!!linebreak:original
([4ff	.
8ffL]	.
16ggL	.
16ffJJ)	.
8ee'L	.
8ff'J	.
=295	=295
2.gg	sf
=296	=296
[4aa	.
(8aaL]	.
16bb-L	.
16aaJJ)	.
8gg'L	.
8aa'J	.
=297	=297
2.bb-	sf
=298	=298
[4ccc	.
(8cccL]	.
16dddL	.
16cccJJ)	.
8bb-'L	.
8ccc'J	.
=299	=299
2.ddd	sf
=300	=300
4r	.
4cc'	pp
4cc'	.
(4.cc	.
=301	=301
4.cc	.
16ddLL	.
16ccJJ)	.
8bnL	.
8ccJ	.
=302	=302
4f	.
4r	.
4r	.
=303	=303
(<16fLL	pp
16e	.
16d	.
16eJJ	.
16fLL	.
16e	.
16d	.
16eJJ	.
16fLL	.
16e	.
16d	.
16eJJ)	.
=304	=304
!!linebreak:original
(<4f'	.
4a'	.
4a')	.
=305	=305
(>2.b-	.
=306	=306
4a)	.
8r	.
(16dd-XLL	.
16ccJJ)	.
8b-'L	.
8cc'J	.
=307	=307
(2.dd-X	.
=308	=308
4cc)	.
8r	.
(16bb-LL	pp
16aaJJ)	.
8gg'L	.
8aa'J	.
=309	=309
!LO:TX:b:Bi:t=Cresc.	!
2.bb-	.
=310	=310
(>8aaL	.
16bb-L	.
16aaJJ)	.
(8gg'L	.
8aa'J)	.
8ee'L	sf
8ff'J	.
=311	=311
(>8ccL	.
16ddL	.
16ccJJ)	.
(8bn'L	.
8cc'J)	.
8g#X'L	sf
8a'J	.
=312	=312
(<8fL	.
16gL	.
16fJJ)	.
(8e'L	.
8f'J)	.
8c'L	sf
8e'J	.
=313	=313
4f'	.
4a' 4ff	.
4r	.
==314	==314
!!linebreak:original
*M9/8	*
!LO:TX:a:B:t=Adagio	!
8%9r	.
=315	=315
[2.a	pp
4.a_	<
=316	=316
(>4.a]	>
4.dd	.
4.ee)	.
=317	=317
[4.ff	]
(4ff]	.
16eeLL	.
16ddJJ)	.
(16ddLL	.
32eeL	.
32ddJ	.
16cc#X	.
16dd	.
16ff	.
16eeJJ)	.
=318	=318
(>4.dd	.
[4.cc#X)	.
8cc#L]	.
(16cc#L	.
16dd	.
16ee	.
16ffJJ)	.
=319	=319
!!linebreak:original
[4.gg	.
8ggL]	.
(>16ggL	.
16ff#X	.
16gg	.
16aaJJ)	.
(4bb-	.
8cc#X)	.
=320	=320
(>4.ee	.
[4.dd)	.
(8ddL]	.
8ee	.
8ffJ)	.
=321	=321
(>4.ff	.
!LO:TX:b:Bi:t=Cresc.	!
[4.ee)	.
(8eeL]	.
8ff	.
8ddJ)	.
=322	=322
4cc#X	.
8r	p
8r	.
(8aaL	.
8ggJ	.
8ffL	.
8ee	.
8ddJ)	.
=323	=323
4cc#X	.
8r	.
(4aa	.
8gg	<
8ffL	[
8ee	>
8ddJ)	.
=324	=324
!!linebreak:original
4cc#X	]
8r	.
4r	.
8r	.
(4.b-	pp
=325	=325
4a)	.
8r	.
4r	.
8r	.
4.B-	sf
=326	=326
(8AL	.
!	!LO:DY:a
8c#X	p
8eJ	.
8aL)	.
(16B-L	.
16A	.
16B-	.
16AJJ	.
16c#LL	.
16A	.
16d	.
16A	.
16e	.
16AJJ)	.
=327	=327
8dL	pp
(8a'	.
8a'J)	.
(8a'L	.
8a'	.
8a'J)	.
(8cc#X'L	.
8cc#'	.
8cc#'J)	.
=328	=328
8ddL	.
8a	.
8aJ	.
8aL	.
8a	.
8aJ	.
8cc#XL	.
8cc#	.
8cc#J	.
=329	=329
!!linebreak:original
4dd	p
8r	.
4r	.
8r	.
4r	.
8r	.
=330	=330
[2.bb-	.
(8bb-L]	.
8ddd-X	.
8cccJ)	.
=331	=331
(>4.bb-	.
8aaL	.
8gg-X	.
8ffJ	.
8ee-XL	.
8cc	.
8aJ)	.
=332	=332
4.a-X	.
!LO:TX:b:Bi:t=Cresc.	!
[4aa-X	.
(>16aa-LL]	.
16gg	.
16bb-	.
16aa-	.
16gg	.
16ffJJ)	.
=333	=333
4ee	.
8r	.
4r	.
8r	.
4r	.
8r	.
=334	=334
!!linebreak:original
8r	.
(8eeL	pp
8ffJ)	.
(8a	.
[4b-)	.
8b-L]	.
(8bn'	.
8b'J)	.
=335	=335
4cc	.
8r	.
4r	.
8r	.
4r	.
8r	.
=336	=336
8r	.
(8bbnL	.
8cccJ	.
8ff#XL	.
8gg	.
8dd#XJ	.
8eeL	.
8bn	.
8ccJ)	.
=337	=337
8r	.
(8bbnL	.
8cccJ	.
8gg#XL	.
8aa	.
8eeJ	.
8ffL	.
8bn	.
8ccJ)	.
=338	=338
8r	.
!LO:TX:b:Bi:t=Cresc.	!
(8aaL	.
8bb-J	.
8ggL	.
8ee	.
8b-J	.
8gL	.
8e	.
8B-J)	.
=339	=339
!!linebreak:original
4A	p
8r	.
4r	.
8r	.
4r	.
8r	.
=340	=340
(>4.ddd	.
4.ccc	.
8qccc/	.
8bb-L	.
16bb-L	.
16aa	.
16bb-	.
16cccJJ)	.
=341	=341
4aa	.
8r	.
4r	.
8r	.
4r	.
8r	.
=342	=342
(>8dddL	.
16gggL	.
16fff	.
16eee	.
16dddJJ)	.
(16dddLL	.
16ccc	.
16fff	.
16eee	.
16ddd	.
16cccJJ)	.
(16cccLL	.
16bb-	.
16ggg	.
16eee	.
16ccc	.
16bb-JJ)	.
=343	=343
!!linebreak:original
(>16aaLL	.
16gg#X	.
16aa	.
16ggn	.
16ff	.
16eeJJ	.
16ddLL	.
16cc#X	.
16dd	.
16ccn	.
16b-	.
16aJJ	.
16gLL	.
16f#X	.
16g	.
16fn	.
16e)	.
16dJJ	.
=344	=344
(<4c#X	.
16dLL	.
16eJJ)	.
(4f	.
16gLL	.
16aJJ)	.
[4.b-	.
=345	=345
(2.b-]	.
!LO:TX:b:Bi:t=Cresc.	!
4.a-X)	.
=346	=346
(<4.g-X	.
[4.f)	sf
(8fL]	>
8gn	.
8eJ)	.
=347	=347
!!linebreak:original
4f	p
8r	.
4r	.
(16dddLL	.
16ccc#X	.
16ddd	.
16cccn	.
16bb-	.
16aaJJ)	.
=348	=348
[4.gg	.
4.gg-	.
([4.ff	.
=349	=349
(8ffL]	.
!LO:TX:b:Bi:t=Cresc.	!
8bb-)	.
8bb-'J)	.
(4.bb-	.
4.aa-X)	.
=350	=350
(>4.gg-X	.
[4.ff)	sf
(8ffL]	>
8ggn	.
8eeJ)	]
=351	=351
8ffL	p
8c	.
8cJ	.
4c	.
8r	.
4r	.
8r	.
=352	=352
8eL	.
8e	.
8eJ	.
4e	.
8r	.
4r	.
8r	.
=353	=353
!!linebreak:original
4.ccc	.
(16bbnLL	.
16ccc)	.
(16ddd	.
16ccc)	.
(16gg#X	.
16aaJJ)	.
(16bb-XLL	.
16aa)	.
(16ee	.
16ff)	.
(16ggn	.
16ffJJ)	.
=354	=354
(16cc#XLL	.
16dd)	.
(16ee	.
16dd)	.
(16a	.
16b-JJ)	.
!LO:TX:b:Bi:t=Decresc.	!
(16ccnLL	.
16b-)	.
(16f#X	.
16g)	.
(16a	.
16gJJ)	.
(16f#LL	.
16g)	.
(16a	.
16g)	.
(16f#	.
16gJJ)	.
=355	=355
(4b-	pp
8a)	.
([4.g	.
8gL]	.
8a	.
8b-J)	.
=356	=356
!!linebreak:original
!LO:TX:b:Bi:t=Cresc.	!
(>4cc	.
16ddLL	.
16eeJJ)	.
[4.ff	.
(8ffL]	.
8a)	.
8aJ	.
=357	=357
(4a	p
16qqcc/LL	.
16qqb-/	.
16qqa/	.
16qqb-/JJ	.
16ccLL	.
16b-JJ)	.
[4.a	.
8.aL]	.
(16gL	<
16.dd	.
32ccJJk)	>
=358	=358
4f	]
8r	pp
4f	.
8r	.
4r	.
8r	.
=359	=359
4.ccc	.
(16bbnLL	pp
16ccc)	.
(16ddd	.
16ccc)	.
(16gg#X	.
16aaJJ)	.
(16bb-XLL	.
16aa)	.
(16ee	.
16ff)	.
(16ggn	.
16ffJJ)	.
=360	=360
!!linebreak:original
4.ccc	.
(16bbnLL	.
16ccc)	.
(16gg#X	.
!LO:TX:b:Bi:t=Cresc.	!
16aa)	.
(16ee#X	.
16ff#XJJ)	.
(16cc#XLL	.
16dd)	.
(16bn	.
16ccn)	.
(16a	.
16f#XJJ)	.
=361	=361
(>[2.d [2.dd	f
4.d]) 4.dd]	.
=362	=362
(32ddLLL	.
32cc#X	.
32dd	.
32ff#X	.
32gg	.
32ff#	.
32gg	.
32aaJJ	.
8bb-'J)	.
2.d 2.dd	sf
=363	=363
(>32ddLLL	.
32cc#X	.
32dd	.
32ee	.
32ff#X	.
32ee	.
32ff#	.
32ggJJ	.
8aa'J)	.
2.d 2.dd	.
=364	=364
!!linebreak:original
(>32ddLLL	sf
32cc#X	.
32dd	.
32ee	.
32ff#X	.
32ee	.
32ff#	.
32ggJJ	.
8aa'J)	.
2.f#X	sf
=365	=365
(>32ddLLL	.
32cc#X	.
32dd	.
32ee-X	.
32ff	.
32ee-	.
32ff	.
32ggJJ	.
8aa-X'J)	.
2.f	sf
=366	=366
!LO:TX:b:Bi:t=Cresc.	!
(>32ggLLL	.
32ff#X	.
32gg	.
32aa	.
32bbn	.
32aa	.
32bb	.
32cccJJJ	.
8ddd')	.
[4.Bn	.
8BL]	.
(8B	.
8gJ)	.
=367	=367
!!linebreak:original
(>4.g	.
4.cc	pp
4.dd)	.
=368	=368
4ee-X	.
8r	.
4r	.
8r	.
4r	.
8r	.
=369	=369
(4.dd	.
4.aa	.
4.ddd)	.
=370	=370
4bb-	.
8r	.
4r	.
8r	.
4r	.
8r	.
=371	=371
(>4.b-	.
!LO:TX:b:Bi:t=Cresc.	!
4.ee-X	.
4.ff)	.
=372	=372
4gg	.
8r	f
4r	.
8r	.
4r	.
8r	.
=373	=373
!!linebreak:original
4ff	p
8r	.
4r	.
8r	.
4r	.
8r	.
=374	=374
4ee	pp
8r	.
4r	.
8r	.
4r	.
8r	.
=375	=375
4a	ppp
8r	.
4r	.
8r	.
4r	.
8r	.
=376	=376
8%9r	.
=377	=377
[2.a	pp
4.a_	.
=378	=378
!LO:TX:b:Bi:t=Cresc.	!
(4.a]	.
4.dd	.
4.ee)	.
=379	=379
[4.ff	p
(4ff#	.
16eeLL	.
16ddJJ)	.
(16ddLL	.
32eeL	.
32ddJ	.
16cc#X	.
16dd	.
16ffn	.
16eeJJ)	.
=380	=380
!!linebreak:original
(>4dd	f
[4.cc#X)	.
8cc#L]	.
(16cc#L	.
16dd	.
16ee	.
16ffJJ)	.
=381	=381
[4.gg	.
8ggL]	p
32qaa/	.
(16ggL	.
16ff#X	.
16gg	.
16aaJJ)	.
(4bb-	.
8cc#X)	.
=382	=382
(>4.ee	.
[4dd)	f
(8ddL]	.
8ee	.
8ffJ)	.
=383	=383
(>4.ff	p
[4.ee)	.
(8eeL]	.
8ff	.
8ddJ)	.
=384	=384
4cc#X	.
8r	.
8r	.
(8aaL	.
8ggJ	.
8ffL	.
8ee	.
8ddJ)	.
=385	=385
!!linebreak:original
4cc#X	.
8r	.
(4aa	<
8gg	.
8ffL	>
8ee	.
8ddJ)	.
=386	=386
4cc#X	]
8r	.
4r	.
8r	.
!	!LO:DY:a
(4.b-	pp
=387	=387
4a)	.
8r	.
4r	.
8r	.
(4.B-	sf
=388	=388
!	!LO:DY:a
8AL)	p
!LO:TX:a:Bi:t=Cresc.	!
8c#X	.
8eJ	.
8aL	.
8A	.
8BnJ	.
8c#L	.
8d	.
8eJ)	.
=389	=389
4d	.
!	!LO:DY:a
8r	p
4r	.
8r	.
4r	.
8r	.
=390	=390
(>4.bb-	.
4.aa	.
8ggL	.
8qaa/	.
16ggL	.
16ff#X	.
16gg	.
16aaJJ)	.
=391	=391
!!linebreak:original
4ff#X	.
8r	.
4r	.
8r	.
4r	.
8r	.
=392	=392
(8bbnL	.
16eeeL	.
16ddd	.
16ccc#X	.
16bbJJ)	.
(16bbLL	.
16aa	.
16ddd	.
16ccc#	.
16bb	.
16aaJJ)	.
(16aaLL	.
16gg	.
16eee	.
16ccc#	.
16aa	.
16ggJJ)	.
=393	=393
(>16ff#XLL	.
16ee#X	.
16ff#	.
16een	.
16dd	.
16cc#XJJ	.
16b-LL	.
16a#X	.
16b-	.
16an	.
16g	.
16f#XJJ	.
16eLL	.
16d#X	.
16e	.
16dn	.
16c#X	.
16BnJJ)	.
=394	=394
!!linebreak:original
(<4A#X	.
16BnLL	.
16c#XJJ)	.
(4d	.
16eLL	.
16f#XJJ)	.
(8g'L	.
8g'	.
8g'J)	.
=395	=395
!LO:TX:b:Bi:t=Cresc.	!
(2.g	.
4.f)	.
=396	=396
(<4.e-X	.
[4.d)	sf
(8dL]	.
8en	.
8c#XJ)	.
=397	=397
4d	.
8r	p
4r	.
8r	.
(16bbnLL	.
16aa#X	.
16bb	.
16aan	.
16gg	.
16ff#XJJ)	.
=398	=398
(4.ee	.
4.ee-X)	.
([4.dd	.
=399	=399
!!linebreak:original
(8ddL]	.
!LO:TX:b:Bi:t=Cresc.	!
8gg)	.
8gg'J)	.
(4.gg	.
4.ff)	.
=400	=400
(>4.ee-X	.
[4dd')	sf
(8ddL]	>
8een	.
8cc#XJ)	.
=401	=401
8ddL	p
8f#X	.
8f#J	.
4f#	.
!	!LO:DY:a
8r	>
4r	.
8r	.
=402	=402
8AL 8g	]
8A 8g	.
8AJ 8g	.
4A 4g	.
8r	.
4r	.
8r	.
=403	=403
(>4.aa	.
(16gg#XLL	.
16aa)	.
(16bbn	.
16aa)	.
(16ee#X	.
16ff#XJJ)	.
(16ggnLL	.
16ff#)	.
(16cc#X	.
16dd)	.
(16een	.
16ddJJ)	.
=404	=404
!!linebreak:original
(<16a#XLL	.
16bn)	.
(16cc#X	.
16b)	.
(16f#X	.
16gJJ)	.
(16anLL	.
16g)	.
(16d#X	.
16e)	.
(16f#	.
16eJJ)	.
(16d#LL	.
16e)	.
(16f#	.
16e)	.
(16d#	.
16eJJ)	.
=405	=405
!	!LO:DY:a
*^	*
(4g	[4.A	pp
8f#X	.	.
[4.e	4.A_	.
8e]	4.A]	.
12f#L	.	.
12gJ)	.	.
*v	*v	*
=406	=406
!LO:TX:b:Bi:t=Cresc.	!
(4a	.
16bnLL	.
16cc#XJJ)	.
([4.dd	.
(8ddL]	.
8f#X)	.
8f#'J	.
=407	=407
!!linebreak:original
(4f#X	ff
16qqg/LL	.
16qqf#/	.
16qqe/	.
16qqf#/JJ	.
16aLL	.
16gJJ)	.
[4.f#	.
8.fL	<
(16eL	[
16.bn	>
32aJJk)	.
=408	=408
4d	pp
8r	.
4r	.
8r	.
4r	.
8r	.
=409	=409
[2.a	p
!LO:TX:b:Bi:t=Cresc.	!
4a_	<
16aLL]	.
(128aLLL	.
128bn	.
128cc#X	.
128dd	.
128ee	.
128ff	.
128ggJJJJJ)	[
128ryy	.
=410	=410
[2.aa	.
4aa_	<
16aaLL]	.
(128aaLLL	.
128bbn	.
128ccc#X	.
128ddd	.
128eee	.
128fff	.
128gggJJJJJ)	[
128ryy	.
=411	=411
!!linebreak:original
4aaa	.
8r	.
4d	.
8r	.
4r	.
8r	.
=412	=412
(32ggLLL	.
32ff#X	.
32gg	.
32ff#	.
32gg	.
32ff#	.
32gg	.
32aaJJ	.
8bb-'J)	.
(32ggLLL	.
32ff#	.
32gg	.
32ff#	.
32gg	.
32ff#	.
32gg	.
32aaJJ	.
8bb-'J)	.
(32ggLLL	.
32ff#	.
32gg	.
32aa	.
32bb-	.
32aa	.
32bb-	.
32aa	.
32gg	.
32ffn	.
32ee	.
32ddJJJ)	.
=413	=413
!!linebreak:original
8cc#X	p
8r	.
4r	.
8r	.
4r	.
8r	.
=414	=414
(>32aaLLL	f
32gg#X	.
32aa	.
32gg#	.
32aa	.
32ggn	.
32ff	.
32eeJJ	.
8dd'J)	.
(32aaLLL	.
32gg#X	.
32aa	.
32gg#	.
32aa	.
32ggn	.
32ff	.
32eeJJ	.
8dd'J)	.
(32aaLLL	.
32gg#X	.
32aa	.
32gg#	.
32aa	.
32ggn	.
32ff	.
32ee	.
32dd	.
32ee	.
32ff	.
32ddJJJ)	.
=415	=415
!!linebreak:original
(>32ee-XLLL	ff
32dd	.
32ee-	.
32ff	.
32gg	.
32ff#X	.
32gg	.
32aaJJ	.
8bb-'J)	.
4r	.
8r	.
4r	.
8r	.
=416	=416
(>32ff#X'LLL	f
32ee	.
32ff#	.
32gg	.
32aa	.
32gg	.
32aa	.
32bb-JJ	.
8ccc'J)	.
4r	.
8r	.
4r	.
8r	.
=417	=417
(>32ggLLL	f
32ff#X	.
32gg	.
32aa	.
32bb-	.
32aa	.
32bb-	.
32cccJJ	.
8dddJ)	.
4r	.
8r	.
4r	.
8r	.
=418	=418
!!linebreak:original
2.fff	.
!	!LO:DY:a
4.c#X	>
=419	=419
4d	]
8r	.
4r	.
8r	.
16dLL	.
16f	.
16a	.
16dd	.
16ee	.
16ffJJ	.
=420	=420
4ff	.
8ee	>
4dd	]
8r	.
(24dLL	.
24f	.
24aJJ	.
24cc#XLL	.
24dd	.
24eeJJ	.
32ffLLL	.
48gg#X	.
48aa	.
48ff	.
32ddJJJ)	.
=421	=421
(>4ff	.
8ee	>
4dd)	]
8r	.
(24dLL	.
24f	.
24aJJ	.
24cc#XLL	.
24dd	.
24eeJJ	.
24ff#XLL	.
24gg#X	.
24aaJJ)	.
=422	=422
!!linebreak:original
(>16bb-LL	<
16gg	.
16ee	.
16cc#X	.
16gg	.
16eeJJ)	[
(16cc#LL	>
16b-J	.
[8ee	.
32eeLL]	.
32cc#	.
32b-	.
32gJJJ	.
32cc#LLL	]
32b-	.
32g	.
32eJJJ	.
[8b-L	.
32b-LL]	.
32g	.
32e	.
32c#XJJJ)	.
=423	=423
4d	pp
8r	.
4d	.
8r	.
4r	.
8r	.
==424	==424
!!linebreak:original
*M3/4	*
!LO:TX:a:B:t=Allegro molto	!
[2.f	p
=425	=425
4f]	.
4e'	.
4f#X'	.
=426	=426
[2.g	.
=427	=427
4g]	.
4f#X'	.
4g#X'	.
=428	=428
(>2a	.
4bn	.
=429	=429
4cc	.
4r	.
4r	.
=430	=430
2.ddT	.
16qqcc/LL	.
16qqdd/JJ	.
=431	=431
4ee	.
4r	.
4r	.
=432	=432
2.dT	f
16qqc/LL	.
16qqd/JJ	.
=433	=433
4c	.
4r	.
4r	.
=434:|!|:	=434:|!|:
!!linebreak:original
2cc	p
4ee-X	.
=435	=435
(4ee-X	.
4dd-X)	.
4dd-')	.
=436	=436
4dd-X	.
4cc	.
4cc'	.
=437	=437
(2a-X	.
4cc)	.
=438	=438
(4cc	.
4b-)	.
4b-'	.
=439	=439
(4b-	.
4a-X)	.
4a-'	.
=440	=440
[2.ff	.
=441	=441
4ff]	.
4ee-X'	.
4ff'	.
=442	=442
[2.gg-X	.
=443	=443
4gg-]	.
4ff'	.
4ggn'	.
=444	=444
[2aa-X	.
=445	=445
4aa-]	.
4gg'	.
4aa-X'	.
=446	=446
(>[2.bb-	.
=447	=447
(4bb-]	.
4aa-X)	.
4aa-')	.
=448	=448
!!linebreak:original
4gg	.
4r	.
16qbbn/	.
4ccc'	.
=449	=449
4aa-X	.
4r	.
16qbbn/	.
4ccc'	.
=450	=450
4gg	.
4r	.
16qbbn/	.
4ccc'	.
=451	=451
4aa-X	.
4r	.
16qbbn/	.
4ccc'	.
=452	=452
4gg	.
4r	.
4r	.
=453	=453
4c'	pp
4e'	.
4f'	.
=454	=454
4g'	.
4r	.
4r	.
=455	=455
4cc'	.
4ee'	.
4ff'	.
=456	=456
4gg'	.
4r	.
4r	.
=457	=457
4e'	.
4g'	.
4a'	.
=458	=458
4b-'	.
4r	.
4r	.
=459	=459
4r	.
4e	.
4e	.
=460	=460
!!linebreak:original
!LO:TX:b:Bi:t=Cresc.	!
[2.f	.
=461	=461
4f]	.
4e'	.
4f#X'	.
=462	=462
[2g	.
=463	=463
4g]	.
4f#X'	.
4g#X'	.
=464	=464
2a	p
4bn	.
=465	=465
4cc'	.
4r	.
4r	.
=466	=466
2dd	pp
4ee	.
=467	=467
4ff'	.
4r	.
4r	.
=468	=468
2ff	ppp
4gg	.
=469	=469
4aa'	.
4r	.
4r	.
=470	=470
2.ggT	.
(16qqff/LL	.
16qqgg/JJ)	.
=471	=471
4aa	.
4r	.
4r	.
=472	=472
2.gT	.
(16qqf/LL	.
16qqg/JJ)	.
=473	=473
!!linebreak:original
4f	.
4r	.
4r	.
=474	=474
4r	.
2e	sf
=475	=475
4f)	.
4cc'	.
4cc'	.
=476	=476
4r	.
2e	sf
=477	=477
4f)	.
4ff'	.
4ff'	.
=478	=478
4r	.
(<2e	.
=479	=479
4f)	sf
(4ccc'	.
4ccc')	.
=480	=480
2.ee-XT	sf
16qqdd/LL	.
16qqee-/JJ	.
=481	=481
4dd	.
4r	.
4r	.
=482	=482
4ee	.
4r	.
4r	.
=483	=483
4ff	.
4ccc	.
4ccc	.
=484	=484
2.ee-XT	sf
16qqdd/LL	.
16qqee-/JJ	.
=485	=485
!!linebreak:original
4dd	.
4r	.
4r	.
=486	=486
4ee	.
4r	.
4r	.
=487	=487
[2.ff	.
=488	=488
!LO:TX:b:Bi:t=Cresc.	!
4ff]	.
4ee'	.
4ff#X'	.
=489	=489
[2.gg	.
=490	=490
4gg]	.
4ff#X'	.
4gg#X'	.
=491	=491
[2.aa	.
=492	=492
2.aa_	.
=493	=493
(4aa']	.
4aa	.
4bb-	.
=494	=494
4ccc	.
4ddd	.
4eee-X)	.
=495	=495
(>4ddd	.
4bb-	.
4aa)	.
=496	=496
4gg'	.
(4ddd	.
4ccc)	.
=497	=497
!!linebreak:original
(>4bb-	.
4aa	.
4gg	.
=498	=498
4ff	.
4ee	.
4dd	.
=499	=499
4cc	.
4b-	.
4a	.
=500	=500
4g)	.
4b-	.
4e'	.
=501	=501
4f'	.
4a'	.
4bn'	sf
=502	=502
2.cc	.
=503	=503
4ff'	.
4aa'	.
4bbn'	sf
=504	=504
[2.ccc	.
=505	=505
4ccc]	.
[2ccc	sf
=506	=506
4ccc]	.
[2ccc	sf
=507	=507
4ccc']	.
4aa'	.
4aa'	.
=508	=508
4ff'	.
4r	.
4r	.
=509:|!|:	=509:|!|:
!!linebreak:original
8qbn/	ff
4cc'	.
4r	.
4c'	.
=510	=510
8qbn/	.
4cc'	.
4r	.
4c'	.
=511	=511
8qbn/	.
4cc'	.
4c'	.
4cc'	.
=512	=512
4c'	.
4cc'	.
4c'	.
=513	=513
(>8d-XL	p
8e-X	.
8d-	.
8c	.
8d-	.
8e-J)	.
=514	=514
(>8fL	sf
8g-X	.
8a-X	.
8b-	.
8cc	.
8dd-XJ	.
=515	=515
8ee-XL	.
8ff	.
8gg-X	.
8ff	.
8ee-	.
8dd-XJ)	.
=516	=516
!!linebreak:original
(>8ccL	.
8b-	.
8a-X	.
8g-X	.
8f	.
8e-XJ)	.
=517	=517
(>8d-XL	.
8e-X	.
8d-	.
8c	.
8d-	.
8fJ)	.
=518	=518
(>8fL	sf
8g-X	.
8a-X	.
8b-	.
8cc	.
8dd-XJ	.
=519	=519
8ee-XL	.
8ff	.
8gg-X	.
8ff	.
8ee-	.
8dd-XJ	.
=520	=520
8ccL	.
8b-	.
8a-X	.
8g-X	.
8f	.
8e-XJ)	.
=521	=521
(<8d-XL	.
8f	.
8e	.
8f	.
8e	.
8fJ)	.
=522	=522
(<8d-XL	.
8f	.
8c	.
8f	.
8Bn	.
8fJ)	.
=523	=523
!!linebreak:original
(<8cL	.
8f	.
8a-X	.
8cc	.
8c	.
8ccJ)	.
=524	=524
4f	.
4r	.
4r	.
=525:|!	=525:|!
[2.ee-X	pp
=526	=526
2.ee-_	.
=527	=527
2.ee-_	.
=528	=528
2.ee-]	.
=529	=529
2.dd	.
=530	=530
[2.dd	.
=531	=531
2.dd_	.
=532	=532
2.dd]	.
=533	=533
(>2.dd-X	.
=534	=534
[2.g) [2.cc	.
=535	=535
2.g] 2.cc]	.
=536	=536
2.f 2.cc	.
=537	=537
!!linebreak:original
4e 4cc	.
4r	.
4r	.
=538	=538
2.r	.
=539	=539
2.r	.
=540	=540
2.r	.
=541	=541
8qb-/	p
4cc'	.
4r	.
4c'	.
=542	=542
!LO:TX:b:Bi:t=Cresc.	!
8qb-/	.
4cc'	.
4r	.
4c'	.
=543	=543
8qb-/	.
4cc'	.
4c'	.
4cc'	.
=544	=544
4c#X'	.
4cc#X'	.
4c#'	.
=545	=545
(<8dL	.
8g	.
8b-	.
8g	.
8dd	.
8b-J)	.
=546	=546
(>8ggL	fp
8dd	.
8bb-	.
8aa	.
8gg	.
8ffJ	.
=547	=547
8ee-XL	.
8dd	.
8cc	.
8b-	.
8a	.
8gJ)	.
=548	=548
!!linebreak:original
(>8f#XL	.
8g	.
8f#	.
8g	.
8a	.
8f#J)	.
=549	=549
(<8dL	.
8g	.
8b-	.
8g	.
8dd	.
8b-J)	.
=550	=550
(>8ggL	fp
8dd	.
8bb-	.
8aa	.
8gg	.
8ffJ	.
=551	=551
8ee-XL	.
8dd	.
8cc	.
8b-	.
8a	.
8gJ	.
=552	=552
8f#XL	.
8g	.
8f#	.
8g	.
8a)	.
8f#J	.
=553	=553
(>8G	.
8bnL	.
8dd	.
8b	.
8ff	.
8ddJ)	.
=554	=554
(>8bbnL	fp
8ff	.
8ddd	.
8ccc	.
8bb	.
8aaJ)	.
=555	=555
!!linebreak:original
(>8ggL	.
8ff	.
8ee	.
8dd	.
8ff	.
8ddJ	.
=556	=556
8ccL	.
8bn	.
8dd	.
8b	.
8cc	.
8eeJ)	.
=557	=557
(>8G	.
8bnL	.
8dd	.
8b	.
8ff	.
8ddJ)	.
=558	=558
(>8bbnL	fp
8ff	.
8ddd	.
8ccc	.
8bb	.
8aaJ	.
=559	=559
8ggL	.
8ff	.
8ee	.
8dd	.
8ff	.
8ddJ	.
=560	=560
8ccL	.
8bn	.
8dd	.
8b	.
8cc	.
8eeJ)	.
=561	=561
(>8c	.
8ccL	.
8ee	.
8cc	.
8gg	.
8eeJ)	.
=562	=562
!!linebreak:original
(>8bb-L	fp
8aa	.
8gg	.
8ff	.
8ee	.
8ddJ	.
=563	=563
8ccL	.
8b-	.
8a	.
8g	.
8b-	.
8gJ	.
=564	=564
8fL	.
8e	.
8g	.
8e	.
8f	.
8aJ)	.
=565	=565
(>8cL	.
8cc	.
8ee	.
8cc	.
8gg	.
8eeJ)	.
=566	=566
8bb-L	fp
8aa	.
8gg	.
8ff	.
8ee	.
8ddJ	.
=567	=567
8ccL	.
8bn	.
8dd	.
8cc	.
8b	.
8ddJ	.
=568	=568
8ccL	.
8bn	.
8dd	.
8cc	.
8b-X	.
8gJ	.
==569	==569
!!linebreak:original
*M2/4	*
!LO:TX:a:B:t=Allegro	!
!LO:TX:Bi:t=Scherzo. D.C.	!
(>24ffLL	p
24ee	.
24ff	.
24gg	.
24ff	.
24eeJJ	.
24ddLL	.
24cc	.
24b-	.
24a	.
24g	.
24f#XJJ)	.
=570	=570
8e'L	.
8e'	.
8g'J	.
8r	.
=571	=571
(>24ggLL	.
24ff#X	.
24ggJJ	.
24aaLL	.
24gg	.
24ffnJJ	.
24eeLL	.
24dd	.
24ccJJ	.
24b-LL	.
24a	.
24gJJ)	.
=572	=572
8f'L	.
8f'	.
8aJ	.
8r	.
=573	=573
!!linebreak:original
(>24ccLL	.
24bn	.
24cc	.
24dd	.
24cc	.
24b-XJJ)	.
(8aL	.
16ffJk)	.
16r	.
=574	=574
(>24ccLL	.
24bn	.
24ccJJ	.
24ddLL	.
24cc	.
24b-XJJ)	.
(8aL	.
16aaJk)	.
16r	.
=575	=575
(>24ccLL	.
24bn	.
24ccJJ	.
24ddLL	.
24cc)	.
(<24b-XJJ	.
8aL)	.
16cccJk)	.
16r	.
=576	=576
(>8ccL	.
16eeL	.
16ddJ	.
8ccJ	.
8r	.
=577	=577
2r	.
=578	=578
4r	.
8bb-'L	.
8bb-'J	.
=579	=579
8ee	.
8r	.
4r	.
=580	=580
!!linebreak:original
4r	.
8ccc'L	.
8ccc'J	.
=581	=581
(>24ccLL	.
24bn	.
24ccJJ	.
24ddLL	.
24cc	.
24b-XJJ)	.
8aL	.
16ffJk)	.
16r	.
=582	=582
(>24ccLL	.
24bn	.
24ccJJ	.
24ddLL	.
24cc	.
24bJJ)	.
(8aL	.
16aaJk)	.
16r	.
=583	=583
!LO:TX:b:Bi:t=Cresc.	!
(>24ccLL	.
24b-	.
24ccJJ	.
24ddLL	.
24cc	.
(24b-JJ	.
8a'L)	.
8eee-X'J)	.
=584	=584
8ddd'L	.
8eee'	.
8fff'	.
8gJ	.
=585	=585
4a	.
4G 4e	f
=586	=586
4A 4f	.
4r	.
=587	=587
!!linebreak:original
(<16ALL	p
16c	.
16g	.
16fJJ	.
16cLL	.
16f	.
16b-	.
16aJJ)	.
=588	=588
4g	.
4r	.
=589	=589
(<16cLL	.
16e	.
16a	.
16gJJ	.
16eLL	.
16g	.
16cc	.
16b-JJ)	.
=590	=590
4a	.
4r	.
=591	=591
(<16cLL	.
16f	.
16b-	.
16aJJ	.
16fLL	.
16a	.
16dd	.
16ccJJ)	.
=592	=592
(>16aLL	.
16cc	.
16gg	.
16ffJJ	.
16ccLL	.
16ff	.
16bb-	.
16aaJJ)	.
=593	=593
(>16ggLL	.
16ff	.
16ee	.
16ddJJ	.
16ccLL	.
16cc#X	.
16dd)	.
16gJJ	.
=594	=594
!!linebreak:original
(>4b-	.
8a)	.
8a'	f
=595	=595
4.A	.
(24ALL	.
24B-	.
24c#XJJ)	.
=596	=596
8d'L	.
8e'	.
8f'	.
8g'J	.
=597	=597
8aL	.
8bn'J	.
8cc'L	.
8cc#X'J	.
=598	=598
8dd'L	.
8ee'J	.
16qqdd/LL	.
16qqee/JJ	.
[4ff	.
=599	=599
(>8ffL]	.
8ee)	.
8ddM	.
8ccJ)	.
=600	=600
(<8b-ML	.
8a	.
8gM)	.
8fJ)	.
=601	=601
(<8emL	.
8dJ	.
8a'L)	.
8A'J)	.
=602	=602
(<16dLL	p
16f	.
16a	.
16gJJ	.
16fLL	.
16a	.
16ff	.
16ddJJ)	.
=603	=603
!!linebreak:original
8cc#X	.
8r	.
4r	.
=604	=604
(>16aLL	.
16cc#X	.
16ee	.
16ddJJ	.
16cc#LL	.
16ee	.
16aa	.
16ggJJ)	.
=605	=605
8ff	.
8r	.
4r	.
=606	=606
2r	.
=607	=607
(>16ddd#XLL	.
16eee	.
16ddd#	.
16eeeJJ	.
16ddd#LL	.
16eee	.
16bbn	.
16gg#XJJ)	.
=608	=608
8ee	.
8r	.
4r	.
=609	=609
4r	.
[4aa	.
=610	=610
!LO:TX:b:Bi:t=Cresc.	!
(4aa]	.
4ff#X)	.
=611	=611
(>4.gg	.
32aaLLL	.
32gg	.
32ff#X	.
32eeJJJ)	.
=612	=612
!!linebreak:original
(>8dd'L	.
8dd')	.
8dd'	.
8dd'J	.
=613	=613
4dd	.
4r	.
=614	=614
8r	.
8dd'L	.
8dd'	.
8dd'J	.
=615	=615
(>16aaLL	.
16gg	.
16ff#X	.
16ggJJ	.
16aaLL	.
16gg	.
16ff#	.
16eeJJ)	.
=616	=616
(>8dd'L	.
8dd')	.
8dd'	.
8dd'J	.
=617	=617
8dd	.
8r	.
4r	.
=618	=618
8r	.
!LO:TX:b:Bi:t=Cresc.	!
8gg'L	.
8gg'	.
8gg'J	.
=619	=619
(>4.ccc	p
32dddLLL	.
32ccc	.
32bbn	.
32aaJJJ)	.
=620	=620
8gg'L	.
8gg'	.
8gg'	.
8gg'J	.
=621	=621
!!linebreak:original
4gg'	.
4r	.
=622	=622
8r	.
8gg'L	.
8gg'	.
8gg'J	.
=623	=623
16dddLL	.
16ccc	.
16bbn	.
16cccJJ	.
16dddLL	.
16ccc	.
16bb	.
16aaJJ	.
=624	=624
(>8gg'L	.
8gg')	.
8gg'	.
8gg'J	.
=625	=625
4gg	.
4r	.
=626	=626
8r	.
!LO:TX:b:Bi:t=Cresc.	!
8gg'L	.
8gg'	.
8gg'J	.
=627	=627
(>16aaLL	p
16gg	.
16ff#X	.
16ggJJ	.
16aaLL	.
16gg	.
16ffn	.
16ddJJ)	.
=628	=628
(>16ffLL	.
16ee	.
16dd#X	.
16eeJJ	.
16ffLL	.
16ee	.
16ddn	.
16bnJJ)	.
=629	=629
!!linebreak:original
(>16ddLL	.
16cc	.
16bn	.
16ccJJ	.
16ddLL	.
16cc	.
16b-X	.
16gJJ)	.
=630	=630
(>16g#XLL	.
16a	.
16b-	.
16bnJJ	.
16ccLL	.
16cc#X	.
16dd	.
16ee-XJJ	.
=631	=631
16eeLL	.
16ff	.
16ff#X	.
16ggJJ	.
16gg#XLL	.
16aa	.
16ffn)	.
16ddJJ	.
=632	=632
(16ddLL	.
16cc)	.
16cc'	.
16cc'JJ	.
(16ccLL	.
16bn)	.
16b'	.
16b'JJ	.
=633	=633
4r	sf
8r	.
[8gg	.
=634	=634
(>8ggL]	.
8cccJ)	.
8r	.
8ee	.
=635	=635
!!linebreak:original
(16dddLL	.
16ccc	.
16bbn	.
16cccJJ	.
16dddLL	.
16ccc	.
16bb-X	.
16ggJJ)	.
=636	=636
(>16bb-LL	.
16aa	.
16gg#X	.
16aaJJ	.
16bb-LL	.
16aa	.
16ggn	.
16eeJJ)	.
=637	=637
!LO:TX:b:Bi:t=Cresc.	!
(>16ggLL	.
16ff	.
16aa	.
16ggJJ	.
16ffLL	.
16ee	.
16dd	.
16ccJJ)	.
=638	=638
(>16bnLL	.
16cc	.
16dd	.
16eeJJ	.
16ffLL	.
16gg	.
16aa	.
16bbnJJ)	.
=639	=639
16ccc'LL	p
(16gg	.
16eee	.
16cccJJ)	.
(16cccLL	.
16bbn	.
16aa	.
16bbJJ)	.
=640	=640
16ccc'LL	.
(16gg	sf
16eee	.
16cccJJ)	.
(16cccLL	.
16bbn	.
16aa	.
16bbJJ)	.
=641	=641
!!linebreak:original
(>16cccLL	.
16eee	.
16gg	.
16cccJJ)	.
16aaLL	.
16ccc	.
16ff	.
16aaJJ)	.
=642	=642
(>16eeLL	.
16gg	.
16cc	.
16eeJJ)	.
(16ddLL	.
16ff	.
16bn	.
16ddJJ)	.
=643	=643
8cc	.
[4.gg	sf
=644	=644
8gg]	.
[4.gg	sf
=645	=645
!LO:TX:b:Bi:t=Cresc.	!
(>16ggLL]	.
16ccc	.
16ee-X	.
16ggJJ)	.
(16ffLL	.
16aa-X	.
16dd	.
16ffJJ)	.
=646	=646
(>16ee-XLL	.
16gg	.
(>16cc	.
16ee-JJ)	.
16ddLL	.
16ff	.
16bn	.
16ddJJ)	.
=647	=647
!!linebreak:original
(>4.cc	.
8ee-X)	p
=648	=648
(>4.ff	.
8dd)	.
=649	=649
(>4.ee-X	.
8cc)	.
=650	=650
(>8.ddL	.
16bnJk)	.
(8.btL	.
32aLL	.
32bJJJ)	.
=651	=651
(>24ggLL	.
24ff#X	.
24ggJJ	.
!LO:TX:b:Bi:t=Cresc.	!
24aaLL	.
24gg)	.
24ff#JJ	.
[4gg	.
=652	=652
(>24ggLL]	.
24ff#X	.
24ggJJ	.
24aaLL	.
24gg	.
24ff#JJ)	.
[4gg	.
=653	=653
(>24ggLL]	.
24ff#X	.
24ggJJ	.
24aaLL	.
24gg	.
24ff#JJ)	.
8gg'L	.
8gg'J	.
=654	=654
!!linebreak:original
8gg'L	.
8gg'	.
8gg'	.
8gg'J	.
=655	=655
8cc	.
8r	.
8r	.
24ffLL	.
24gg	.
!LO:TX:b:Bi:t=Cresc.	!
24ffJJ)	.
=656	=656
8ee	.
8r	.
8r	.
24eeLL	.
24dd	.
24eeJJ)	.
=657	=657
8ff	.
8r	.
8r	.
24aaLL	.
24gg	.
24aaJJ)	.
=658	=658
(>4.bb-	f
8ee)	.
=659	=659
(>24ffLL	p
24ee	.
24ffJJ	.
24ggLL	.
24ff	.
24eeJJ	.
24ddLL	.
24cc	.
24b-JJ	.
24aLL	.
24g	.
24fJJ)	.
=660	=660
8e'L	.
8e'	.
8g'J	.
8r	.
=661	=661
!!linebreak:original
(>24ggLL	.
24ff#X	.
24ggJJ	.
24aaLL	.
24gg	.
24ffnJJ	.
24eeLL	.
24dd	.
24ccJJ	.
24b-LL	.
24a	.
24gJJ)	.
=662	=662
8f'L	.
8f'	.
8a'J	.
8r	.
=663	=663
(>24ccLL	.
24bn	.
24ccJJ	.
24ddLL	.
24cc	.
(<24b-XJJ	.
8aL)	.
16ffJk	.
16r	.
=664	=664
(>24ccLL	.
24bn	.
24ccJJ	.
24ddLL	.
24cc	.
24b-XJJ)	.
8aL)	.
16aaJk	.
16r	.
=665	=665
(>24ccLL	.
24bn	.
24ccJJ	.
24ddLL	.
24cc	.
(<24b-XJJ	.
8aL)	.
16cccJk	.
16r	.
=666	=666
(>8ccL	.
16eeL	.
16ddJ	.
8ccJ	.
8r	.
=667	=667
2r	.
=668	=668
!!linebreak:original
4r	.
8bb-'L	p
8bb-'J	.
=669	=669
8ee'	.
8r	.
4r	.
=670	=670
4r	.
8eee-X'L	.
8eee-'J	.
=671	=671
8ff#X'	.
!LO:TX:b:Bi:t=Cresc.	!
8r	.
8eee-X'L	.
8eee-'J	.
=672	=672
8ddd	.
8r	.
8cccL	.
8cccJ	.
=673	=673
8bb-	.
8r	.
8bb-L	.
8bb-J	.
=674	=674
8aa	.
8r	.
8ggL	.
8ggJ	.
=675	=675
8ff	.
8r	f
8ddL	.
8ddJ	.
=676	=676
8ff	.
8r	.
8g#XL	.
8g#J	.
=677	=677
!!linebreak:original
8a	.
8r	.
(>24bb-LL	sf
24aa	.
24bb-JJ	.
24cccLL	.
24bb-	.
24aaJJ	.
=678	=678
24ggLL	.
24ff#X	.
24ggJJ	.
24aaLL	.
24gg)	.
24ffnJJ	.
8ee'L	.
8dd'J	.
=679	=679
8cc#X	.
8r	.
24bb-LL	sf
24aa	.
24bb-JJ	.
24cccLL	.
24bb-	.
24aaJJ	.
=680	=680
24ggLL	.
24ff#X	.
24ggJJ	.
24aaLL	.
24gg)	.
24ffnJJ	.
8ee'L	.
8dd'J	.
=681	=681
!!linebreak:original
8cc#X	.
8r	.
!LO:TX:b:Bi:t=Cresc.	!
(>24bb-LL	.
24aa	.
24bb-JJ	.
24cccLL	.
24bb-	.
24aaJJ	.
=682	=682
24ggLL	.
24ff#X	.
24ggJJ	.
24aaLL	.
24gg	.
24ffnJJ	.
24eeLL	.
24dd#X	.
24eeJJ	.
24ffLL	.
24ee	.
24ddnJJ)	.
=683	=683
(>24cc#XLL	.
24b#X	.
24cc#JJ	.
24ddLL	.
24cc#	.
24b#JJ)	.
8a'L	.
8a'J	.
=684	=684
8a'L	sf
8a'J	.
8a'L	.
16bnL	.
16cc#XJJ	.
=685	=685
[2dd	sf
=686	=686
!!linebreak:original
(>8ddL]	.
32eeLL	.
32ff	.
32gg	.
32aaJJJ	.
8bb-'L	.
8bb-'J)	.
=687	=687
(>4bb-	sf
8aaL	.
8gg'J)	p
=688	=688
8ff'L	.
8ee'	.
8dd'	.
8cc'J	.
=689	=689
8b-	.
8r	.
4r	.
=690	=690
2r	.
=691	=691
!LO:TX:b:Bi:t=Cresc.	!
2r	.
=692	=692
[2gg	sf
=693	=693
(>24ggLL]	.
24ff#X	.
24ggJJ	.
24aa-XLL	.
24gg	ff
24ffnJJ	.
24eeLL	.
24dd	.
24eeJJ	.
24ffLL	.
24ee	.
24ddJJ)	.
=694	=694
!!linebreak:original
8cc'L	.
8cc'	.
8cc'	.
8cc'J	.
=695	=695
8bn'L	.
8g'	p
8a'	.
8b'J	.
=696	=696
8cc'L	.
8dd'	.
8ee-X'	.
8een'J	.
=697	=697
[2ff	sf
=698	=698
(>8ffL]	.
32ggLL	.
32aa-X	.
32bb-	.
32cccJJJ	.
8ddd-XL	.
8ddd-'J)	.
=699	=699
(>4ddd-X	.
8cccL	.
8ddd-'J)	.
=700	=700
8eee-X'L	.
8fff'	.
8ggg-X'	.
8eee-'J	.
=701	=701
8aaa-X'	.
8r	.
4r	.
=702	=702
2r	.
=703	=703
2r	.
=704	=704
!!linebreak:original
4r	.
8r	.
8ff	pp
=705	=705
4.gg-X	.
8ee-X	.
=706	=706
4.cc	.
8ee-X	.
=707	=707
4.dd-X	.
8ff	.
=708	=708
4.aa-X	.
8ff	.
=709	=709
4.gg-X	.
8ee-X	.
=710	=710
4.cc	.
8ee-X)	.
=711	=711
8dd-X	.
8dd-L	sf
8dd-	.
8dd-J	.
=712	=712
8dd-X	.
8dd-L	sf
8dd-	.
8dd-J	.
=713	=713
8dd-X	.
8dd-L	.
8dd-	.
8dd-J	.
=714	=714
!!linebreak:original
8dd-X	.
8ee-XL	sf
8ee-	.
8ee-J	.
=715	=715
8ee-X	.
8ee-L	sf
8ee-	.
8ee-J	.
=716	=716
8ee-X	.
8eenL	sf
8ee	.
8eeJ	.
=717	=717
8ee	.
8ffL	sf
8ff	.
8ffJ	.
=718	=718
8ff	.
8r	.
4r	.
=719	=719
2r	.
=720	=720
4r	.
8r	.
8ee	p
=721	=721
4.ff	.
8dd)	.
=722	=722
!!linebreak:original
(>4.bn	.
8dd	.
=723	=723
4.cc	.
8ee	.
=724	=724
4.gg)	.
[8gg	.
=725	=725
(>8ggL]	.
8ff#XJ)	.
[4gg	.
=726	=726
(>8ggL]	.
8ff#XJ	.
[4gg	.
=727	=727
24ggLL])	.
24ff#X	.
24ggJJ	.
24aa-XLL	.
24gg	.
24ffnJJ	.
24ee-XLL	.
24dd	.
24ee-JJ	.
24ffLL	.
24ee-)	.
24ddJJ	.
=728	=728
8cc'L	.
8cc'	.
8cc'	.
8cc'J	.
=729	=729
!!linebreak:original
8bn'L	.
8g'	sf
8a'	.
8b'J	.
=730	=730
8cc'L	.
8dd'	.
8ee-X'	.
8een'J	.
=731	=731
8ff	.
8r	.
4r	.
=732	=732
2r	.
=733	=733
2r	.
=734	=734
(2ff	.
=735	=735
8ffL)	sf
32ggLL	.
32aa	.
32bb-	.
32cccJJJ)	.
8ddd-X'L	.
8ddd-'J)	.
=736	=736
(>4ddd-X	.
8cccL)	.
8ddd-'J	.
=737	=737
(>8eee	f
32aa-XLLL	.
32bb-	.
32ccc	.
32ddd-XJJJ	.
8eeeL	.
8eee'J)	.
=738	=738
!!linebreak:original
(>4eee-X	.
8ddd-XL)	.
8eee-'J	.
=739	=739
8fff	.
8r	.
4r	.
=740	=740
8r	.
40ffLLL	.
40gg	.
40aa-X	.
40bb-	.
40cccJJJ)	.
8ddd-X'L	.
8ddd-'J)	.
=741	=741
8ccc	.
8r	.
4r	.
=742	=742
8r	.
40eeLLL	.
40ff	.
40gg	.
40aa-X	.
40bb-JJJ)	.
8ccc'L	.
(24cccL	.
24ddd)	.
24eeeJJ	.
=743	=743
8fff	.
4fff	.
[8fff	.
=744	=744
!!linebreak:original
8fff]	.
4fff	.
8fff	.
=745	=745
8eee	.
8r	.
4r	.
=746	=746
2r	.
=747	=747
(>24ggLL	f
24ff#X	.
24ggJJ	.
24aa-XLL	.
24gg	.
24ffnJJ	.
24eeLL	.
24dd#X	.
24eeJJ	.
24ffLL	.
24ee	.
24ddnJJ)	.
=748	=748
8cc	.
8bbn'L	.
8bb'	.
8bb'J	.
=749	=749
8ccc	.
8r	.
4r	.
=750	=750
2r	.
=751	=751
!!linebreak:original
(>24ggLL	.
24ff#X	.
24gg	.
24aa-X	.
24gg	.
24ffnJJ	.
24eeLL	.
24dd#X	.
24ee	.
24ff	.
24ee	.
24ddnJJ)	.
=752	=752
8cc	.
8bbnL	f
8bb	.
8bbJ	.
=753	=753
8ccc	.
8r	.
4r	.
=754	=754
2r	.
=755	=755
2r	.
=756	=756
2r	.
=757	=757
2r	.
=758	=758
2r	.
=759	=759
2r	.
=760	=760
4r	.
8r	.
8ff#X	pp
=761	=761
4.gg	.
8ee	.
=762	=762
4.cc#X	.
8ee)	.
=763	=763
!!linebreak:original
(>4.dd	.
8ff#X	.
=764	=764
4.aa	.
8ff#X	.
=765	=765
!LO:TX:b:Bi:t=Cresc.	!
4.gg	.
8ee	.
=766	=766
4.cc#X	.
8ee)	.
=767	=767
8dd	.
8ddL	sf
8dd	.
8ddJ	.
=768	=768
8dd	.
8ddL	sf
8dd	.
8ddJ	.
=769	=769
8dd	.
8ddL	sf
8dd	.
8ddJ	.
=770	=770
8dd	.
8aa-XL	sf
8aa-	.
8aa-J	.
=771	=771
8aa-X	.
8r	.
4r	.
=772	=772
!!linebreak:original
4r	.
8r	.
8gg	p
=773	=773
4.aa-X	.
8ff	.
=774	=774
4.dd	.
8ff	.
=775	=775
4.ee-X	.
8gg	.
=776	=776
4.bb-	.
8gg)	.
=777	=777
[2aa-X	.
=778	=778
(>4aa-]	.
8ggL	.
8ffJ)	.
=779	=779
(4ee	.
[4bb-)	.
=780	=780
(>4bb-]	.
8aaL	.
8ggJ)	.
=781	=781
4ff#X	.
[4eee-X	.
=782	=782
!!linebreak:original
(>4eee-]	.
8dddL	.
8cccJ)	.
=783	=783
!LO:TX:b:Bi:t=Cresc.	!
(>4.bb-	.
8aa	.
=784	=784
8ggL	.
8aa	.
8bb-	.
8cccJ)	.
=785	=785
(>4bb-	.
8aaL	.
8ggJ	.
=786	=786
!LO:TX:b:Bi:t=Decresc.	!
8ffL	.
8gg	.
8aa	.
8bbnJ)	.
=787	=787
8ccc	.
8r	.
4r	.
=788	=788
2r	.
=789	=789
(>24ffLL	.
24ee	.
24ffJJ	.
24ggLL	.
24ff	.
24eeJJ	.
24ddLL	.
24cc	.
24ddJJ	.
24eeLL	.
24dd)	.
24ccJJ	.
=790	=790
!!linebreak:original
(>8bn'L	.
8b')	.
8b'	.
8b'J	.
=791	=791
4cc	.
4r	.
=792	=792
2r	.
=793	=793
(>24bb-LL	.
24aa	.
24bb-JJ	.
24cccLL	.
24bb-	.
24aaJJ	.
24ggLL	.
24ff#X	.
24ggJJ	.
24aaLL	.
24gg	.
24ffnJJ)	.
=794	=794
[8ee'L	.
8ee']	.
8ee'	.
8ee'J	.
=795	=795
(>24dddLL	.
24ccc#X	.
24dddJJ	.
24eeeLL	.
24ddd	.
24cccnJJ	.
24bb-LL	.
24aa	.
24bb-JJ	.
24cccLL	.
24bb-	.
24aaJJ)	.
=796	=796
!!linebreak:original
(>8bb-'L	.
8bb-')	.
8bb-'	.
8bb-'J	.
=797	=797
(>24bb-LL	.
24aa	.
24bb-JJ	.
24cccLL	.
24bb-	.
24aaJJ)	.
[4bb-	sf
=798	=798
(>24bb-LL]	.
24aa	.
24bb-JJ	.
24cccLL	.
24bb-	.
24aaJJ)	.
[4bb-	sf
=799	=799
!LO:TX:b:Bi:t=Cresc.	!
(>24bb-LL]	.
24aa	.
24bb-JJ	.
24aaLL	.
24bb-	.
24aaJJ	.
24bb-LL	.
24aa	.
24bb-JJ	.
24aaLL	.
24bb-	.
24aaJJ)	.
=800	=800
(>24bb-LL	<
24aa	.
24bb-JJ	.
24aaLL	.
24bb-	.
24aaJJ	.
24bb-LL	.
24aa	.
24bb-JJ	.
24aaLL	.
24bb-	.
24aaJJ)	.
=801	=801
!!linebreak:original
(>24bb-LL	ff
24ccc	.
24bb-JJ	.
24aaLL	.
24bb-	.
24aaJJ	.
24ggLL	.
24aa	.
24ggJJ	.
24ffLL	.
24gg	.
24ffJJ)	.
=802	=802
(>24eeLL	.
24ff	.
24eeJJ	.
24ddLL	.
24ee	.
24ddJJ	.
24ccLL	.
24dd	.
24ccJJ	.
24b-LL	.
24cc	.
24b-JJ)	.
=803	=803
8a	p
8r	.
4r	.
=804	=804
4r	.
8bb-'L	.
8bb-'J	.
=805	=805
8ee'	.
8r	.
4r	.
=806	=806
4r	.
8ccc'L	.
8ccc'J	.
=807	=807
!!linebreak:original
(>24ccLL	.
24bn	.
24ccJJ	.
24ddLL	.
24cc)	.
24b-XJJ	.
(8aL	.
16ffJk)	.
16r	.
=808	=808
(>24ccLL	.
24bn	.
24ccJJ	.
24ddLL	.
24cc	.
24b-XJJ)	.
8aL	.
16aaJk)	.
16r	.
=809	=809
(>24ccLL	.
24bn	.
24ccJJ	.
24ddLL	.
24cc	.
24bJJ)	.
(8aL	.
16cccJk)	.
16r	.
=810	=810
(>8ccL	.
16eeL	.
16ddJ	.
8ccJ)	.
8r	.
=811	=811
!!linebreak:original
(>24ffLL	f
24ee	.
24ffJJ	.
24ggLL	.
24ff	.
24eeJJ	.
24ddLL	.
24cc	.
24b-JJ	.
24aLL	.
24g)	.
24fJJ	.
=812	=812
8e'L	.
8e'	.
8g'J	.
8r	.
=813	=813
(>24ggLL	f
24ff#X	.
24ggJJ	.
24aaLL	.
24gg	.
24ffnJJ	.
24eeLL	.
24dd	.
24ccJJ	.
24b-LL	.
24a	.
24gJJ)	.
=814	=814
8f'L	.
8f'	.
8a'J	.
8r	.
=815	=815
!!linebreak:original
(>24ccLL	p
24bn	.
24ccJJ	.
24ddLL	.
24cc	.
24bJJ)	.
(8aL	.
16ffJk)	.
16r	.
=816	=816
(>24ccLL	.
24bn	.
24ccJJ	.
24ddLL	.
24cc	.
24bJJ)	.
8aL	.
16aaJk)	.
16r	.
=817	=817
!LO:TX:b:Bi:t=Cresc.	!
(>24ccLL	.
24bn	.
24ccJJ	.
24ddLL	.
24cc	.
24b-XJJ)	.
(8a'L	.
8eee-X'J)	.
=818	=818
8ddd'L	.
8eee'J	.
8fff'L	.
8gJ	.
=819	=819
4a	.
4G 4e	f
=820	=820
4A 4f	.
4r	.
=821	=821
!!linebreak:original
(<16ALL	p
16c	.
16g	.
16fJJ	.
16cLL	.
16f	.
16b-	.
16aJJ	.
=822	=822
4g)	.
4r	.
=823	=823
(<16cLL	.
16e	.
16a	.
16gJJ	.
16eLL	.
16g	.
16cc	.
16b-JJ)	.
=824	=824
4a	.
4r	.
=825	=825
16cLL	.
16f	.
16b-	.
16aJJ	.
16fLL	.
16a	.
16dd	.
16ccJJ	.
=826	=826
(>16aLL	.
16cc	.
16gg	.
16ffJJ	.
16ccLL	.
16ff	.
16bb-	.
16aaJJ)	.
=827	=827
!!linebreak:original
(>16ggLL	.
16ff	.
16ee	.
16ddJJ	.
16cc#LL	.
16cc#X	.
16dd	.
16gJJ)	.
=828	=828
(>4b-	.
8a)	.
8a'	f
=829	=829
(<4.A	sf
24ALL	.
24Bn	.
24cJJ)	.
=830	=830
8d'L	.
8e'	.
8f'	.
8g'J	.
=831	=831
8a'L	.
8bn'	.
8cc'	.
8cc#X'J	.
=832	=832
8dd'L	.
8ee'J	.
(16qqdd/LL	fp
16qqee/JJ)	.
[4ff	.
=833	=833
(8ffL]	.
8ee)	.
(8ddM	.
8ccJ)	.
=834	=834
!!linebreak:original
(<8b-ML	.
8a)	.
(8gM	.
8fJ)	.
=835	=835
(<8eL	.
8fJ)	.
(8e-X'L	.
8c'J)	.
=836	=836
(<16B-LL	p
16d	.
16f	.
16e-XJJ	.
16dLL	.
16f	.
16dd	.
16b-JJ)	.
=837	=837
4a	.
4r	.
=838	=838
2r	.
=839	=839
2r	.
=840	=840
2r	.
=841	=841
(>16ccc#XLL	.
16ddd	.
16ccc#	.
16dddJJ	.
16ccc#LL	.
16ddd	.
16aa	.
16ff#XJJ)	.
=842	=842
4dd	.
4r	.
=843	=843
2r	.
=844	=844
2r	.
=845	=845
!!linebreak:original
4r	.
!LO:TX:b:Bi:t=Cresc.	!
[4ccc	.
=846	=846
(>4ccc]	.
4bbn)	.
=847	=847
(>4.ccc	p
32dddLLL	.
32ccc	.
32bbn	.
32aaJJJ)	.
=848	=848
(8gg'L	.
8gg')	.
8gg'	.
8gg'J	.
=849	=849
4gg	.
4r	.
=850	=850
8r	.
8gg'L	.
8gg'	.
8gg'J	.
=851	=851
(>16dddLL	.
16ccc	.
16bbn	.
16cccJJ	.
16dddLL	.
16ccc	.
16bb	.
16aaJJ)	.
=852	=852
(8gg'L	.
8gg')	.
8gg'	.
8gg'J	.
=853	=853
4gg	.
4r	.
=854	=854
8r	p
!LO:TX:a:Bi:t=Cresc.	!
8cc'L	.
8cc'	.
8cc'J	.
=855	=855
(>4.ff	p
32ggLLL	.
32ff	.
32ee	.
32ddJJJ)	.
=856	=856
!!linebreak:original
8cc'L	.
8cc'	.
8cc'	.
8cc'J	.
=857	=857
4cc	.
4r	.
=858	=858
8r	.
8cc'L	.
8cc'	.
8cc'J	.
=859	=859
(>16ggLL	.
16ff	.
16ee	.
16ffJJ	.
16ggLL	.
16ff	.
16ee	.
16ddJJ)	.
=860	=860
(8cc'L	.
8cc')	.
8cc'	.
8cc'J	.
=861	=861
4cc	.
4r	.
=862	=862
8r	.
!LO:TX:b:Bi:t=Cresc.	!
8ccc'L	.
8ccc'	.
8ccc'J	.
=863	=863
16dddLL	.
16ccc	.
16bbn	.
16cccJJ	.
16dddLL	.
16ccc	.
16bb-X	.
16ggJJ	.
=864	=864
!!linebreak:original
(>16bb-LL	.
16aa	.
16gg#X	.
16aaJJ	.
16bb-LL	.
16aa	.
16ggn	.
16eeJJ)	.
=865	=865
(>16ggLL	.
16ff	.
16ee	.
16ffJJ	.
16ggLL	.
16ff	.
16ee-X	.
16ccJJ)	.
=866	=866
(>16cc#XLL	.
16dd	.
16ee-X	.
16eenJJ	.
16ffLL	.
16ff#X	.
16gg	.
16aa-XJJ	.
=867	=867
16aaLL	.
16bb-	.
16bbn	.
16cccJJ	.
16ccc#XLL	.
16ddd	.
16bb-X	.
16ggJJ)	.
=868	=868
16ggLL	.
16ff	.
16ff'	p
(>16ff'JJ	.
16ffLL	sf
16ee	.
16ee')	.
16ee'JJ	.
=869	=869
!!linebreak:original
4r	.
8r	sf
[8ccc	.
=870	=870
(8cccL]	.
8fffJ)	.
8r	.
8aa	.
=871	=871
(>16gggLL	.
16fff	.
16eee	.
16fffJJ	.
16gggLL	.
16fff	.
16eee	.
16cccJJ)	.
=872	=872
(>16eee-XLL	.
16ddd	.
16ccc#X	.
16dddJJ	.
16eee-LL	.
16ddd	.
16cccn)	.
16aaJJ	.
=873	=873
!LO:TX:b:Bi:t=Cresc.	!
(>16cccLL	.
16bb-	.
16ddd	.
16cccJJ	.
16bb-LL	.
16aa	.
16gg)	.
16ffJJ	.
=874	=874
(>16eeLL	.
16ff	.
16gg	.
16aaJJ	.
16bb-LL	.
16ccc	.
16ddd)	.
16eeeJJ	.
=875	=875
16fff'LL	.
(16ccc	.
16aaa	.
16fffJJ)	.
(16fffLL	.
16eee	.
16ddd	.
16eeeJJ)	.
=876	=876
!!linebreak:original
16fff'LL	.
(16ccc	.
16aaa	.
16fffJJ)	.
(16fffLL	.
16eee	.
16ddd	.
16eeeJJ)	.
=877	=877
(16fffLL	.
16aaa	.
16ccc	.
16fffJJ)	.
(16dddLL	.
16fff	.
16bb-	.
16dddJJ)	.
=878	=878
(>16aaLL	.
16ccc	.
(>16ff	.
16aaJJ	.
16ggLL)	.
16bb-	.
16ee	.
16ggJJ)	.
=879	=879
8ff	p
[4.ccc	sf
=880	=880
!LO:TX:b:Bi:t=Cresc.	!
8ccc]	.
[4.ccc	sf
=881	=881
(>16cccLL]	p
16fff	.
16aa-X	.
16cccJJ)	.
(16bb-LL	.
16ddd-X	.
16gg	.
16bb-JJ)	.
=882	=882
(>16aa-XLL	.
16ccc	.
(>16ff	.
16aa-JJ	.
16ggLL)	.
16ccc	.
16ee	.
16ggJJ)	.
=883	=883
!!linebreak:original
(>4.ff	p
8aa-X)	.
=884	=884
(>4.bb-	.
8gg)	.
=885	=885
4.aa-X	.
8ff	.
=886	=886
(>8.ggL	.
16eeJk)	.
8.eeL	.
32ddLL)	.
32eeJJJ	.
=887	=887
!LO:TX:b:Bi:t=Cresc.	!
(24ffLL	.
24bbn	.
24cccJJ	.
24dddLL	.
24ccc	.
24bbJJ)	.
[4ccc	.
=888	=888
(>24cccLL]	.
24bbn	.
24cccJJ	.
24dddLL	.
24ccc)	.
24bbJJ	.
[4ccc	.
=889	=889
(24cccLL]	.
24bbn	.
24cccJJ	.
24dddLL	.
24ccc)	.
24bbJJ	.
[4ccc	.
=890	=890
8ccc'L]	.
8ccc')	.
8ccc'	.
8ccc'J	.
=891	=891
8ff	.
8r	.
8r	.
!LO:TX:b:Bi:t=Cresc.	!
24bb-LL	.
24ccc	.
24bb-JJ)	.
=892	=892
!!linebreak:original
8aa	.
8r	.
8r	.
24aaLL	.
24gg	.
24aaJJ)	.
=893	=893
8bb-	.
8r	.
8r	.
24dddLL	.
24ccc	.
24dddJJ)	.
=894	=894
(>4.eee-X	f
8aa)	.
=895	=895
(>24bb-LL	p
24aa	.
24bb-JJ	.
24cccLL	.
24bb-	.
24aaJJ	.
24ggLL	.
24ff	.
24ee-XJJ	.
24ddLL	.
24cc	.
24b-JJ)	.
=896	=896
8a'L	.
8a'	.
8cc'J	.
8r	.
=897	=897
(>24cccLL	.
24bbn	.
24cccJJ	.
24dddLL	.
24ccc	.
24bb-XJJ	.
24aaLL	.
24gg	.
24ffJJ	.
24ee-XLL	.
24dd)	.
24ccJJ	.
=898	=898
!!linebreak:original
8bn'L	.
8b'	.
8dd'J	.
8r	.
=899	=899
2r	.
=900	=900
2r	.
=901	=901
4r	.
8gg'L	p
8gg'J	.
=902	=902
8bb-'L	pp
8bb-'	.
8gg'J	.
8r	.
=903	=903
8ee'L	.
8ee'	.
8cc#XJ	.
8r	.
=904	=904
8aa'L	.
8aa'	.
8ff#X'J	.
8r	.
=905	=905
8ee-X'L	.
8ee-'	.
8cc'J	.
8r	.
=906	=906
8aa-X'L	.
8aa-'	.
8ff'J	.
8r	.
=907	=907
8dd'L	.
8dd'	.
8bn'J	.
8r	.
=908	=908
8dd'L	.
8dd'	.
8bn'J	.
8r	.
=909	=909
8dd'L	.
8dd'	.
8bn'J	.
8r	.
=910	=910
!!linebreak:original
8dd-X'L	.
8dd-'	.
8b-'J	.
8r	.
=911	=911
8dd-X'L	.
8dd-'	.
8b-'J	.
8r	.
=912	=912
!LO:TX:b:Bi:t=Cresc.	!
8dd-XL	.
8dd-	.
8b-	.
8b-J	.
=913	=913
8b-L	.
8b-	.
8ee	.
8eeJ	.
=914	=914
8ff	.
8r	.
4r	.
=915	=915
2r	.
=916	=916
2r	.
=917	=917
2r	.
=918	=918
(>24ffLL	.
24ee	.
24ffJJ	.
24ggLL	f
24ff	.
24eeJJ	.
24ddLL	.
24cc	.
24b-JJ	.
24aLL	.
24g	.
24fJJ)	.
=919	=919
8e'L	.
8e'	.
8g'J	.
8r	.
=920	=920
!!linebreak:original
(>24ggLL	.
24ff#X	.
24ggJJ	.
24aaLL	.
24gg	.
24ffnJJ	.
24eeLL	.
24dd	.
24ccJJ	.
24b-LL	.
24a	.
24gJJ)	.
=921	=921
8f'L	.
8f'	.
8a'J	.
8r	.
=922	=922
(>2aa	.
=923	=923
4.bb-)	.
8gg')	.
=924	=924
8ee'L	.
8cc'J	.
[4ccc	.
=925	=925
8ccc'L]	.
8aa'	.
8ccc'	.
8aa'J	.
=926	=926
(>24eee-X'LL	.
24ddd	.
24eee-JJ	.
24fff'LL	.
24eee-	.
24dddJJ	.
24cccLL	.
24bb-	.
24aaJJ	.
24ggLL	.
24ff	.
24ee-XJJ)	.
=927	=927
8dd'L	.
8dd'	.
8ddd'J	.
8r	.
=928	=928
!!linebreak:original
8ee'L	.
8ee'	.
8eee'J	.
8r	.
=929	=929
8ff'L	.
8ff'	.
8fff'J	.
8r	.
=930	=930
2aa	.
=931	=931
2bb-	.
=932	=932
2ggT	.
=933	=933
8ff	.
8r	.
24ccLL	p
24bn	.
24ccJJ	.
24ddLL	.
24cc	.
24b-XJJ)	.
=934	=934
(>8aL	.
16ggJk)	.
16r	.
24ccLL	.
24bn	.
24ccJJ	.
24ddLL	.
24cc	.
24b-XJJ)	.
=935	=935
(>8aL	.
16aaJk)	.
16r	.
24ccLL	.
24bn	.
24ccJJ	.
24ddLL	.
24cc	.
24b-XJJ)	.
=936	=936
!!linebreak:original
!LO:TX:a:Bi:t=Cresc.	!
(>8aL	.
16ffJk	.
16r	.
8b-L	.
16ggJk)	.
16r	.
=937	=937
8ccL	.
16aaJk	.
16r	.
8ddL	.
16bb-Jk)	.
16r	.
=938	=938
(>8ffL	.
16cccJk)	.
16r	.
8ffL	.
16dddJk)	.
16r	.
=939	=939
(>8ggL	.
16eeeJk)	.
16r	.
(>8aaL	.
16gggJk)	.
16r	.
=940	=940
8ggL	.
16fffJk	.
16r	.
8ggL	.
16fffJk)	.
16r	.
=941	=941
8aaL	.
16fffJk	.
16r	.
8ggL	.
16eeeJk)	.
16r	.
=942	=942
!!linebreak:original
(>8aaL	.
16fffJk)	.
16r	.
(8bb-L	.
16gggJk)	.
16r	.
=943	=943
(>8aaL	.
16fffJk)	.
16r	.
8ggL	.
16eeeJk)	.
16r	.
=944	=944
(>8aaL	.
16fffJk)	.
16r	.
8bb-L	.
16gggJk)	.
16r	.
=945	=945
(>8aaL	f
16fffJk)	.
16r	.
8ggL	.
16eeeJk)	.
16r	.
=946	=946
(>8aaL	.
16fffJk)	.
16r	.
8ggL	.
16eeeJk)	.
16r	.
=947	=947
(>8aaL	.
16fffJk)	.
16r	.
8ggL	.
16eeeJk)	.
16r	.
=948	=948
4fff	.
4g 4b- 4ee	ff
=949	=949
4f 4a 4ff	.
4r	.
==	==
*-	*-
!!!YEM:	FFIN conversion: MUSITEK, Ojai, California
!!!RDF**kern: > = above
!!!RDF**kern: < = below
